!!!!SEGMENT: pl-kk--kk-i-130--001_gorczycki-grzegorz-gerwazy--beata-es-virgo-maria.krn
!!!cenid: 16xx:733
!!!COM: Gorczycki, Grzegorz Gerwazy
!!!COM-rismID: pe30009207
!!!CDT: ~1666-1734/04/30
!!!CNT: Polish
!!!OTL: Beata es virgo Maria
!!!PDT:
!!!AGN: Sacred
!!!YEC: Copyright 2022 Narodowy Instytut Fryderyka Chopina (https://polishscores.org)
!!!YEM: License CC-BY-4.0 (https://creativecommons.org/licenses/by/4.0)
!!!SMS-siglum: PL-Kk
!!!SMS-shelfmark: Kk.I.130
!!!SMS-shelfwork: 001 W
!!!SMS-variant:
!!!SMS-altvar:
!!!NIFC-rismSourceID: 1001145170
!!!NIFC-rismChildID: 1001145183
!!!NIFC-islandoraID: pl-kk:3524
!!!URL-pdf-islandora: https://repozytorium.nifc.pl/islandora/object/pl-kk%3A3524/datastream/PDF/view
!!!URL-scan: https://polish.musicsources.pl/pl/lokalizacje/galeria/rekopisy/5760 @EN{Scan on Polish Music Sources Website} @PL{Skany w portalu Dziedzictwo Muzyki Polskiej w otwartym dostępie}
!!!IIIF: https://repozytorium.nifc.pl/islandora/object/pl-kk%3A3524/datastream/IIIF/view
!!!ONB-nifc: UWAGA: utwory w zbiorze: 1. Beata es virgo Maria, 2. Felix es sacra virgo Maria, 3. Benedicta et venerabilis
!!!AIN: 1 alto 2 empty 1 tenor 1 vox
!!!key:
**kern	**text	**mod-text	**kern	**text	**mod-text	**kern	**text	**mod-text	**kern	**text	**mod-text	**kern	**text	**mod-text
*part5	*	*	*part4	*	*	*part3	*	*	*part2	*	*	*part1	*	*
*staff5	*	*	*staff4	*	*	*staff3	*	*	*staff2	*	*	*staff1	*	*
*Iempty	*	*	*Iempty	*	*	*Itenor	*	*	*Ialto	*	*	*Ivox	*	*
*I"Baſso. Ripieno.	*	*	*I"Baſso.	*	*	*I"Tenore	*	*	*I"Alto.	*	*	*I"Canto.	*	*
*mI"Basso ripieno	*	*	*mI"Basso	*	*	*	*	*	*mI"Alto	*	*	*mI"Soprano	*	*
*I'B. rip	*	*	*I'B	*	*	*I'T	*	*	*I'A	*	*	*I'S	*	*
*mI'B rip	*	*	*	*	*	*	*	*	*	*	*	*	*	*
*clefF4	*	*	*clefF4	*	*	*clefC4	*	*	*clefC3	*	*	*clefC1	*	*
*	*	*	*	*	*	*mclefGv2	*	*	*mclefG2	*	*	*mclefG2	*	*
*ok[b-b-]	*	*	*ok[b-b-]	*	*	*	*	*	*	*	*	*	*	*
*k[b-]	*	*	*k[b-]	*	*	*k[b-]	*	*	*k[b-]	*	*	*k[b-]	*	*
*F:	*	*	*F:	*	*	*F:	*	*	*F:	*	*	*F:	*	*
*M2/1	*	*	*M2/1	*	*	*M2/1	*	*	*M2/1	*	*	*M2/1	*	*
*met(C|)	*	*	*met(C|)	*	*	*met(C|)	*	*	*met(C|)	*	*	*met(C|)	*	*
=1-	=1-	=1-	=1-	=1-	=1-	=1-	=1-	=1-	=1-	=1-	=1-	=1-	=1-	=1-
*xywh-pl-kk--i-130--0009:374,433,4123,829	*	*	*xywh-pl-kk--i-130--0007:382,269,5251,990	*	*	*xywh-pl-kk--i-130--0005:412,315,5041,887	*	*	*xywh-pl-kk--i-130--0003:368,249,5211,944	*	*	*xywh-pl-kk--i-130--0001:364,356,5025,925	*	*
*	*	*	*lig	*	*	*	*	*	*	*	*	*	*	*
!LO:TX:t=P:problem=przed kluczem inicjał B	!	!	!LO:TX:t=P:problem=przed kluczem inicjał B	!	!	!LO:TX:t=P:problem=przed kluczem inicjał B	!	!	!LO:TX:t=P:problem=przed kluczem inicjał B	!	!	!LO:TX:t=P:problem=przed kluczem inicjał B	!	!
!LO:MO:mod=!null:null	!	!	!LO:MO:mod=!null:null	!	!	!	!	!	!	!	!	!	!	!
!LO:TX:a:t=1. à Capella	!	!	!LO:TX:a:t=1. à Cappella	!	!	!	!	!	!	!	!	!	!	!
!	!	!	!	!	!	!	!	!	!LO:TX:a:t=P:problem=kreska pseudotaktowa	!	!	!	!	!
!	!	!	!	!	!	!LO:MO:mod=!null:null	!	!	!LO:MO:mod=!null:null	!	!	!LO:MO:mod=!null:null	!	!
!	!	!	!	!	!	!LO:TX:a:t=1.	!	!	!LO:TX:a:t=à Cappella	!	!	!LO:TX:a:t=1. à Cappella	!	!
1F	Be-	Be-	1F	Be-	Be-	4F/	Be-	Be-	0r	.	.	1a	Be-	Be-
.	.	.	.	.	.	4G/	.	.	.	.	.	.	.	.
.	.	.	.	.	.	4A\	.	.	.	.	.	.	.	.
!	!	!	!	!	!	!LO:TX:a:t=P:problem=kreska pseudotaktowa	!	!	!	!	!	!	!	!
.	.	.	.	.	.	4B-\	.	.	.	.	.	.	.	.
!	!	!	!LO:TX:a:t=P:problem=♮ above	!	!	!	!	!	!	!	!	!	!	!
1En	.	.	1En	.	.	4c\	-a-	-a-	.	.	.	2.g/	-a-	-a-
.	.	.	.	.	.	4G/	.	.	.	.	.	.	.	.
.	.	.	.	.	.	1c\	.	.	.	.	.	.	.	.
!	!	!	!	!	!	!	!	!	!	!	!	!LO:TX:a:t=P:problem=kreska pseudotaktowa	!	!
.	.	.	.	.	.	.	.	.	.	.	.	4g/	-ta	-ta
*	*	*	*Xlig	*	*	*	*	*	*	*	*	*	*	*
=2-	=2-	=2-	=2-	=2-	=2-	=2-	=2-	=2-	=2-	=2-	=2-	=2-	=2-	=2-
!	!	!	!	!	!	!	!	!	!LO:TX:a:t=P:problem=kreska pseudotaktowa	!	!	!LO:TX:a:t=P:problem=kreska pseudotaktowa	!	!
2.D/	-a-	-a-	2.D/	a-	a-	.	.	.	1f	Be-	Be-	1f,<	es	es,
*	*	*	*	*	*	*2\right	*	*	*	*	*	*	*	*
.	.	.	.	.	.	2Bn\	-ta	-ta	.	.	.	.	.	.
!LO:TX:a:t=P:problem=kreska pseudotaktowa	!	!	!	!	!	!	!	!	!	!	!	!	!	!
4D/	-ta	-ta	4D/	-ta	-ta	.	.	.	.	.	.	.	.	.
*	*	*	*	*	*	*	*	*	*2\right	*	*	*	*	*
!LO:TX:a:t=P:problem=kreska pseudotaktowa	!	!	!LO:TX:a:t=P:problem=kreska pseudotaktowa	!	!	!LO:TX:a:t=P:problem=kreska pseudotaktowa	!	!	!	!	!	!	!	!
1C,<	es,	es,	1C,<	es!	es,	1c,<	es	es,	2.e\	-a-	-a-	4c/	Be-	be-
.	.	.	.	.	.	.	.	.	.	.	.	4d/	.	.
.	.	.	.	.	.	.	.	.	.	.	.	4e/	.	.
!	!	!	!	!	!	!	!	!	!LO:TX:a:t=P:problem=kreska pseudotaktowa	!	!	!LO:TX:a:t=P:problem=kreska pseudotaktowa	!	!
.	.	.	.	.	.	.	.	.	4d\	.	.	4f/	.	.
=3-	=3-	=3-	=3-	=3-	=3-	=3-	=3-	=3-	=3-	=3-	=3-	=3-	=3-	=3-
*	*	*	*	*	*	*	*	*	*	*	*	*2\right	*	*
!	!	!	!LO:TX:a:t=P:problem=kreska pseudotaktowa	!	!	!LO:TX:a:t=P:problem=kreska pseudotaktowa	!	!	!	!	!	!	!	!
1c	Be-	be-	1c	Be-	be-	0r	.	.	4c\	.	.	2.g\	-a-	-a-
.	.	.	.	.	.	.	.	.	4d\	.	.	.	.	.
.	.	.	.	.	.	.	.	.	4e\	.	.	.	.	.
!	!	!	!	!	!	!	!	!	!LO:TX:a:t=P:problem=kreska pseudotaktowa	!	!	!LO:TX:a:t=P:problem=kreska pseudotaktowa	!	!
.	.	.	.	.	.	.	.	.	4f\	.	.	4a\	.	.
*lig	*	*	*lig	*	*	*	*	*	*	*	*	*	*	*
!LO:SIC:s=1B-:v	!	!	!LO:SIC:s=1B-:v	!	!	!	!	!	!	!	!	!LO:SIC:s=2.b-\:v	!	!
1B-X	-a-	-a-	1B-X	a-	a-	.	.	.	4g\	.	.	2.b-X\	.	.
.	.	.	.	.	.	.	.	.	4d\	.	.	.	.	.
*	*	*	*	*	*	*	*	*	*lig	*	*	*	*	*
.	.	.	.	.	.	.	.	.	1g\	.	.	.	.	.
!	!	!	!	!	!	!	!	!	!	!	!	!LO:TX:a:t=P:problem=kreska pseudotaktowa	!	!
.	.	.	.	.	.	.	.	.	.	.	.	4g\	.	.
=4-	=4-	=4-	=4-	=4-	=4-	=4-	=4-	=4-	=4-	=4-	=4-	=4-	=4-	=4-
!	!	!	!LO:TX:a:t=P:problem=kreska pseudotaktowa	!	!	!	!	!	!	!	!	!	!	!
1A	.	.	1A	.	.	1c	Be-	be-	.	.	.	2cc\	.	.
!	!	!	!	!	!	!	!	!	!	!	!	!LO:TX:a:t=P:problem=kreska pseudotaktowa	!	!
.	.	.	.	.	.	.	.	.	1f	.	.	2a\	-ta	-ta
*Xlig	*	*	*Xlig	*	*	*	*	*	*Xlig	*	*	*	*	*
*2\right	*	*	*2\right	*	*	*lig	*	*	*	*	*	*	*	*
!	!	!	!	!	!	!LO:SIC:s=1B-:v	!	!	!	!	!	!	!	!
2.G\	.	.	2.G\	.	.	1B-X	-a-	-a-	.	.	.	2b-,<\	es	es,
!	!	!	!	!	!	!	!	!	!LO:TX:a:t=P:problem=kreska pseudotaktowa	!	!	!LO:TX:a:t=P:problem=kreska pseudotaktowa	!	!
.	.	.	.	.	.	.	.	.	2e\	-ta	-ta	2g\	Vir-	Vir-
!LO:TX:a:t=P:problem=kreska pseudotaktowa	!	!	!LO:TX:a:t=P:problem=kreska pseudotaktowa	!	!	!	!	!	!	!	!	!	!	!
4G\	-ta	-ta	4G\	-ta	-ta	.	.	.	.	.	.	.	.	.
=5-	=5-	=5-	=5-	=5-	=5-	=5-	=5-	=5-	=5-	=5-	=5-	=5-	=5-	=5-
2F,<\	es	es,	2F,<\	es	es,	1A	.	.	2f,<\	es	es,	2.a\	.	.
!	!	!	!	!	!	!	!	!	!LO:TX:a:t=P:problem=kreska pseudotaktowa	!	!	!	!	!
(1F	Vir-	Vir-	1F	Vir-	Vir-	.	.	.	2c/	Vir-	Vir-	.	.	.
!	!	!	!	!	!	!	!	!	!	!	!	!LO:TX:a:t=P:problem=kreska pseudotaktowa	!	!
.	.	.	.	.	.	.	.	.	.	.	.	4a\	-go	-go
*	*	*	*	*	*	*Xlig	*	*	*	*	*	*	*	*
.	.	.	.	.	.	2.G/	.	.	2d\	-go	-go	2b-\	Ma-	Ma-
!	!	!	!LO:TX:a:t=P:problem=kreska pseudotaktowa	!	!	!	!	!	!LO:TX:a:t=P:problem=kreska pseudotaktowa	!	!	!	!	!
2E\)	.	.	2En\	.	.	.	.	.	2e\	Ma-	Ma-	2cc\	-ri-	-ri-
!	!	!	!	!	!	!LO:TX:a:t=P:problem=kreska pseudotaktowa	!	!	!	!	!	!	!	!
.	.	.	.	.	.	4G/	-ta	-ta	.	.	.	.	.	.
=6-	=6-	=6-	=6-	=6-	=6-	=6-	=6-	=6-	=6-	=6-	=6-	=6-	=6-	=6-
!LO:TX:a:t=P:problem=kreska pseudotaktowa	!	!	!LO:TX:a:t=P:problem=kreska pseudotaktowa	!	!	!	!	!	!	!	!	!LO:TX:a:t=P:problem=kreska pseudotaktowa	!	!
1D,<	-go	-go	1D,<	-go	-go	2F,</	es	es,	(1f	-ri-	-ri-	1dd	.	.
.	.	.	.	.	.	2F/	be-	be-	.	.	.	.	.	.
*lig	*	*	*lig	*	*	*	*	*	*	*	*	*	*	*
1E	Ma-	Ma-	1E	Ma-	Ma-	1G	-a-	-a-	2.e\)	.	.	2g,</	-a	-a,
*	*	*	*	*	*	*	*	*	*	*	*	*custos:cc	*	*
*	*	*	*	*	*	*	*	*	*	*	*	*xywh-pl-kk--i-130--0001:371,1028,5107,808	*	*
!	!	!	!	!	!	!	!	!	!	!	!	!LO:TX:a:t=P:problem=kreska pseudotaktowa	!	!
.	.	.	.	.	.	.	.	.	.	.	.	[<2cc\	Ma-	Ma-
!	!	!	!	!	!	!	!	!	!LO:TX:a:t=P:problem=kreska pseudotaktowa	!	!	!	!	!
.	.	.	.	.	.	.	.	.	4d\	.	.	.	.	.
=7-	=7-	=7-	=7-	=7-	=7-	=7-	=7-	=7-	=7-	=7-	=7-	=7-	=7-	=7-
!LO:TX:a:t=P:problem=kreska pseudotaktowa	!	!	!	!	!	!LO:TX:a:t=P:problem=kreska pseudotaktowa	!	!	!	!	!	!LO:LB:g=original	!	!
!	!	!	!	!	!	!	!	!	!	!	!	!LO:MO:mod=!null:null	!	!
!	!	!	!	!	!	!	!	!	!	!	!	!LO:N:xstem:cue	!	!
1F	.	.	1F	.	.	1A	-ta	-ta,	2c,<\	-a	-a,	4cc]	.	.
.	.	.	.	.	.	.	.	.	.	.	.	4b-\	.	.
!	!	!	!	!	!	!	!	!	!LO:TX:a:t=P:problem=kreska pseudotaktowa	!	!	!	!	!
.	.	.	.	.	.	.	.	.	2f\	be-	be-	4a\	.	.
!	!	!	!	!	!	!	!	!	!	!	!	!LO:TX:a:t=P:problem=kreska pseudotaktowa	!	!
.	.	.	.	.	.	.	.	.	.	.	.	4b-\	.	.
*Xlig	*	*	*Xlig	*	*	*	*	*	*	*	*	*	*	*
!	!	!	!	!	!	!	!	!	!LO:TX:a:t=P:problem=kreska pseudotaktowa	!	!	!	!	!
1G	-ri-	-ri-	1G	-ri-	-ri-	1r	.	.	1d	-a-	-a-	(2cc\	ri-	ri-
.	.	.	.	.	.	.	.	.	.	.	.	2bn\)	.	.
=8-	=8-	=8-	=8-	=8-	=8-	=8-	=8-	=8-	=8-	=8-	=8-	=8-	=8-	=8-
!LO:TX:a:t=P:problem=kreska pseudotaktowa	!	!	!LO:TX:a:t=P:problem=kreska pseudotaktowa	!	!	!	!	!	!LO:TX:a:t=P:problem=kreska pseudotaktowa	!	!	!LO:TX:a:t=P:problem=kreska pseudotaktowa	!	!
1C	-a	-a,	1C,<	-a	-a,	2r	.	.	1e	-ta	-ta,	1cc,<	-a.	-a,
.	.	.	.	.	.	1c	Vir-	Vir-	.	.	.	.	.	.
!	!	!	!	!	!	!	!	!	!	!	!	!LO:TX:a:t=P:problem=kreska pseudotaktowa	!	!
0r	.	.	0r	.	.	.	.	.	2r	.	.	1r	.	.
!	!	!	!	!	!	!LO:TX:a:t=P:problem=kreska pseudotaktowa	!	!	!	!	!	!	!	!
.	.	.	.	.	.	2B-\	.	.	1f\	Vir-	Vir-	.	.	.
=9-	=9-	=9-	=9-	=9-	=9-	=9-	=9-	=9-	=9-	=9-	=9-	=9-	=9-	=9-
!	!	!	!	!	!	!LO:TX:a:t=P:problem=kreska pseudotaktowa	!	!	!	!	!	!	!	!
.	.	.	.	.	.	1A,<	-go	-go	.	.	.	2r	.	.
!	!	!	!	!	!	!	!	!	!LO:TX:a:t=P:problem=kreska pseudotaktowa	!	!	!LO:TX:a:t=P:problem=kreska pseudotaktowa	!	!
.	.	.	.	.	.	.	.	.	2e,<\	-go	-go	2cc\	Be-	be-
!LO:TX:a:t=P:problem=kreska pseudotaktowa	!	!	!LO:TX:a:t=P:problem=kreska pseudotaktowa	!	!	!	!	!	!	!	!	!	!	!
*	*	*	*	*	*	*	*	*	*xywh-pl-kk--i-130--0003:361,902,5183,752	*	*	*	*	*
!	!	!	!	!	!	!	!	!	!LO:LB:g=original	!	!	!	!	!
!	!	!	!	!	!	!	!	!	!	!	!	!LO:SIC:s=2.b-\:v	!	!
1r	.	.	1r	.	.	1B-	Ma-	Ma-	2d\	Ma-	Ma-	2.b-X\	-a-	-a-
.	.	.	.	.	.	.	.	.	1f\	-ri-	-ri-	.	.	.
!	!	!	!	!	!	!	!	!	!	!	!	!LO:TX:a:t=P:problem=kreska pseudotaktowa	!	!
.	.	.	.	.	.	.	.	.	.	.	.	4a\	.	.
=10-	=10-	=10-	=10-	=10-	=10-	=10-	=10-	=10-	=10-	=10-	=10-	=10-	=10-	=10-
2rBB	.	.	2r	.	.	1c	-ri-	-ri-	.	.	.	2g/	.	.
!	!	!	!LO:TX:a:t=P:problem=kreska pseudotaktowa	!	!	!	!	!	!LO:TX:a:t=P:problem=kreska pseudotaktowa	!	!	!	!	!
2C/	Quae	quae	2C/	Quae	quae	.	.	.	2e\	.	.	1cc	.	.
!	!	!	!	!	!	!LO:TX:a:t=P:problem=kreska pseudotaktowa	!	!	!	!	!	!	!	!
2.D\	om-	om-	2.D\	om-	om-	1F,<	-a	-a,	2f,<\	-a	-a,	.	.	.
!	!	!	!	!	!	!	!	!	!LO:TX:a:t=P:problem=kreska pseudotaktowa	!	!	!	!	!
.	.	.	.	.	.	.	.	.	2d\	Ma-	Ma-	2bn\	-ta	-ta
*	*	*	*custos:E	*	*	*	*	*	*	*	*	*	*	*
!	!	!	!LO:TX:a:t=P:problem=kreska pseudotaktowa	!	!	!	!	!	!	!	!	!	!	!
!LO:TX:a:t=P:problem=kreska pseudotaktowa	!	!	!	!	!	!	!	!	!	!	!	!	!	!
4D\	-ni-	-ni-	4D\	-ni-	-ni-	.	.	.	.	.	.	.	.	.
=11-	=11-	=11-	=11-	=11-	=11-	=11-	=11-	=11-	=11-	=11-	=11-	=11-	=11-	=11-
!	!	!	!	!	!	!	!	!	!	!	!	!LO:TX:a:t=P:problem=kreska pseudotaktowa	!	!
*xywh-pl-kk--i-130--0009:368,1053,4141,645	*	*	*xywh-pl-kk--i-130--0007:397,1001,5194,724	*	*	*xywh-pl-kk--i-130--0005:518,848,4920,788	*	*	*	*	*	*	*	*
!LO:LB:g=original	!	!	!LO:LB:g=original	!	!	!LO:LB:g=original	!	!	!	!	!	!	!	!
2E,<\	-um	-um	2En,<\	-um	-um	1re	.	.	(2g\	ri-	ri-	1cc,<	es	es.
!LO:TX:a:t=P:problem=kreska pseudotaktowa	!	!	!LO:TX:a:t=P:problem=kreska pseudotaktowa	!	!	!	!	!	!LO:TX:a:t=P:problem=kreska pseudotaktowa	!	!	!	!	!
2C/	por-	por-	2C/	por-	por-	.	.	.	2e\)	.	.	.	.	.
!	!	!	!	!	!	!	!	!	!LO:TX:a:t=P:problem=kreska pseudotaktowa	!	!	!	!	!
!	!	!	!	!	!	!	!	!	!	!	!	!LO:SIC:s=(2b-\:v	!	!
4D\	-ta-	-ta-	4D\	-ta-	-ta-	2r	.	.	1f,<	-a	-a,	(2b-X\	Ma-	Ma-
4E\	.	.	4E\	.	.	.	.	.	.	.	.	.	.	.
!	!	!	!	!	!	!LO:TX:a:t=P:problem=kreska pseudotaktowa	!	!	!	!	!	!LO:TX:a:t=P:problem=kreska pseudotaktowa	!	!
1F\	.	.	1F\	.	.	2F/	Quae	quae	.	.	.	2a\)	.	.
=12-	=12-	=12-	=12-	=12-	=12-	=12-	=12-	=12-	=12-	=12-	=12-	=12-	=12-	=12-
.	.	.	.	.	.	2.G/	om-	om-	0r	.	.	1g	-ri-	-ri-
!LO:TX:a:t=P:problem=kreska pseudotaktowa	!	!	!LO:TX:a:t=P:problem=kreska pseudotaktowa	!	!	!	!	!	!	!	!	!	!	!
2E\	.	.	2E\	.	.	.	.	.	.	.	.	.	.	.
.	.	.	.	.	.	4G/	-ni-	-ni-	.	.	.	.	.	.
!	!	!	!	!	!	!	!	!	!	!	!	!LO:TX:a:t=P:problem=kreska pseudotaktowa	!	!
2F,<\	-sti	-sti	2F,<\	-sti	-sti	2A,<\	-um	-um	.	.	.	1f,<	-a.	-a,
!	!	!	!	!	!	!LO:TX:a:t=P:problem=kreska pseudotaktowa	!	!	!	!	!	!	!	!
1F\	Cre-	Cre-	1F\	Cre-	Cre-	2F/	por-	por-	.	.	.	.	.	.
=13-	=13-	=13-	=13-	=13-	=13-	=13-	=13-	=13-	=13-	=13-	=13-	=13-	=13-	=13-
.	.	.	.	.	.	4A\	-ta-	-ta-	2r	.	.	0r	.	.
.	.	.	.	.	.	4B-\	.	.	.	.	.	.	.	.
!LO:TX:a:t=P:problem=kreska pseudotaktowa	!	!	!LO:TX:a:t=P:problem=kreska pseudotaktowa	!	!	!	!	!	!LO:TX:a:t=P:problem=kreska pseudotaktowa	!	!	!	!	!
2E\	-a-	-a-	2E\	-a-	-a-	1c	.	.	2c/	quae	quae	.	.	.
!LO:TX:a:t=P:problem=kreska pseudotaktowa	!	!	!	!	!	!	!	!	!	!	!	!	!	!
1D	-to-	-to-	1D	-to-	-to-	.	.	.	2.d\	om-	om-	.	.	.
!	!	!	!	!	!	!LO:TX:a:t=P:problem=kreska pseudotaktowa	!	!	!	!	!	!	!	!
.	.	.	.	.	.	2Bn\	.	.	.	.	.	.	.	.
!	!	!	!	!	!	!	!	!	!LO:TX:a:t=P:problem=kreska pseudotaktowa	!	!	!	!	!
.	.	.	.	.	.	.	.	.	4d\	-ni-	-ni-	.	.	.
=14-	=14-	=14-	=14-	=14-	=14-	=14-	=14-	=14-	=14-	=14-	=14-	=14-	=14-	=14-
!	!	!	!	!	!	!	!	!	!	!	!	!LO:TX:a:t=P:problem=kreska pseudotaktowa	!	!
2C,</	-rem	-rem,	2C,</	-rem	-rem,	2c,<\	-sti	-sti	2e,<\	-um	-um	1r	.	.
!LO:TX:a:t=P:problem=kreska pseudotaktowa	!	!	!LO:TX:a:t=P:problem=kreska pseudotaktowa	!	!	!	!	!	!LO:TX:a:t=P:problem=kreska pseudotaktowa	!	!	!	!	!
2AA/	por-	por-	2AA/	por-	por-	1F	Cre-	Cre-	2c\	por-	por-	.	.	.
2.BB-/	-ta-	-ta-	2.BB-/	-ta-	-ta-	.	.	.	4d\	-ta-	-ta-	2re	.	.
.	.	.	.	.	.	.	.	.	4e\	.	.	.	.	.
!	!	!	!	!	!	!LO:TX:a:t=P:problem=kreska pseudotaktowa	!	!	!	!	!	!LO:TX:a:t=P:problem=kreska pseudotaktowa	!	!
.	.	.	.	.	.	2F/	-a-	-a-	1f\	.	.	2f/	Quae	quae
!LO:TX:a:t=P:problem=kreska pseudotaktowa	!	!	!LO:TX:a:t=P:problem=kreska pseudotaktowa	!	!	!	!	!	!	!	!	!	!	!
4AA/	.	.	4AA/	.	.	.	.	.	.	.	.	.	.	.
=15-	=15-	=15-	=15-	=15-	=15-	=15-	=15-	=15-	=15-	=15-	=15-	=15-	=15-	=15-
!LO:TX:a:t=P:problem=kreska pseudotaktowa	!	!	!	!	!	!	!	!	!	!	!	!	!	!
1GG	.	.	1GG	.	.	1B-y	-to-	-to-	.	.	.	2.g\	om-	om-
!	!	!	!	!	!	!	!	!	!LO:TX:a:t=P:problem=kreska pseudotaktowa	!	!	!	!	!
.	.	.	.	.	.	.	.	.	2e\	.	.	.	.	.
!	!	!	!	!	!	!	!	!	!	!	!	!LO:TX:a:t=P:problem=kreska pseudotaktowa	!	!
.	.	.	.	.	.	.	.	.	.	.	.	4g\	-ni-	-ni-
!LO:TX:a:t=P:problem=kreska pseudotaktowa	!	!	!LO:TX:a:t=P:problem=kreska pseudotaktowa	!	!	!LO:TX:a:t=P:problem=kreska pseudotaktowa	!	!	!	!	!	!	!	!
1FF,<	-sti.	-sti	1FF	-sti.	-sti	1A,<	-rem	-rem,	2f,<\	-sti	-sti	2a,<\	-um	-um
*	*	*	*	*	*	*	*	*	*	*	*	*custos:a	*	*
!	!	!	!	!	!	!	!	!	!	!	!	!LO:TX:a:t=P:problem=kreska pseudotaktowa	!	!
.	.	.	.	.	.	.	.	.	1f\	Cre-	Cre-	2f/	por-	por-
=16-	=16-	=16-	=16-	=16-	=16-	=16-	=16-	=16-	=16-	=16-	=16-	=16-	=16-	=16-
*	*	*	*	*	*	*	*	*	*	*	*	*xywh-pl-kk--i-130--0001:396,1503,5016,783	*	*
!LO:TX:a:t=P:problem=kreska pseudotaktowa	!	!	!	!	!	!	!	!	!	!	!	!LO:LB:g=original	!	!
0r	.	.	0r	.	.	00r	.	.	.	.	.	4a\	-ta-	-ta-
.	.	.	.	.	.	.	.	.	.	.	.	4b-\	.	.
!	!	!	!	!	!	!	!	!	!LO:TX:a:t=P:problem=kreska pseudotaktowa	!	!	!	!	!
.	.	.	.	.	.	.	.	.	2e\	-a-	-a-	1cc	.	.
.	.	.	.	.	.	.	.	.	1d	-to-	-to-	.	.	.
.	.	.	.	.	.	.	.	.	.	.	.	2bn\	.	.
=17-	=17-	=17-	=17-	=17-	=17-	=17-	=17-	=17-	=17-	=17-	=17-	=17-	=17-	=17-
!	!	!	!	!	!	!	!	!	!	!	!	!LO:TX:a:t=P:problem=kreska pseudotaktowa	!	!
2r	.	.	2r	.	.	.	.	.	2c,<\	-rem	-rem,	1cc,<	-sti	-sti
!LO:TX:a:t=P:problem=kreska pseudotaktowa	!	!	!	!	!	!	!	!	!LO:TX:a:t=P:problem=kreska pseudotaktowa	!	!	!	!	!
[<2C	Cre-	Cre-	1C	Cre-	Cre-	.	.	.	2c\	quae	quae	.	.	.
!	!	!	!	!	!	!	!	!	!	!	!	!LO:TX:a:t=P:problem=kreska pseudotaktowa	!	!
2C]	.	.	.	.	.	.	.	.	2.d\	om-	om-	1rdd	.	.
!	!	!	!LO:TX:a:t=P:problem=kreska pseudotaktowa	!	!	!	!	!	!	!	!	!	!	!
2BB-/	a-	a-	2BB-/	-a-	-a-	.	.	.	.	.	.	.	.	.
*	*	*	*	*	*	*	*	*	*custos:f	*	*	*	*	*
!	!	!	!	!	!	!	!	!	!LO:TX:a:t=P:problem=kreska pseudotaktowa	!	!	!	!	!
.	.	.	.	.	.	.	.	.	4e\	-ni-	-ni-	.	.	.
=18-	=18-	=18-	=18-	=18-	=18-	=18-	=18-	=18-	=18-	=18-	=18-	=18-	=18-	=18-
*lig	*	*	*lig	*	*	*	*	*	*	*	*	*	*	*
*	*	*	*	*	*	*	*	*	*xywh-pl-kk--i-130--0003:418,1363,5140,674	*	*	*	*	*
!	!	!	!	!	!	!	!	!	!LO:LB:g=original	!	!	!	!	!
1AA	-to-	-to-	1AA	-to-	-to-	1F	quae	quae	4f,<\	-um	-um	1cc	Cre-	Cre-
.	.	.	.	.	.	.	.	.	4c\	por-	por-	.	.	.
.	.	.	.	.	.	.	.	.	1f	-ta-	-ta-	.	.	.
!	!	!	!	!	!	!	!	!	!	!	!	!LO:TX:a:t=P:problem=kreska pseudotaktowa	!	!
!	!	!	!	!	!	!	!	!	!	!	!	!LO:SIC:s=1b-:v	!	!
1GG	.	.	1GG	.	.	2.G/	om-	om-	.	.	.	1b-X	-a-	-a-
!	!	!	!	!	!	!	!	!	!LO:TX:a:t=P:problem=kreska pseudotaktowa	!	!	!	!	!
.	.	.	.	.	.	.	.	.	2e\	.	.	.	.	.
!	!	!	!	!	!	!LO:TX:a:t=P:problem=kreska pseudotaktowa	!	!	!	!	!	!	!	!
.	.	.	.	.	.	4G/	-ni-	-ni-	.	.	.	.	.	.
*Xlig	*	*	*Xlig	*	*	*	*	*	*	*	*	*	*	*
=19-	=19-	=19-	=19-	=19-	=19-	=19-	=19-	=19-	=19-	=19-	=19-	=19-	=19-	=19-
2FF,</	-rem	-rem,	2FF,</	-rem	-rem,	4A,</	-u(m)	-u(m)	2f,<\	-sti	-sti,	2a\	-to-	-to-
.	.	.	.	.	.	4F/	por-	por-	.	.	.	.	.	.
!LO:TX:a:t=P:problem=kreska pseudotaktowa	!	!	!LO:TX:a:t=P:problem=kreska pseudotaktowa	!	!	!	!	!	!	!	!	!LO:TX:a:t=P:problem=kreska pseudotaktowa	!	!
2F\	quae	quae	2F\	quae	quae	1f	-ta-	-ta-	2a\	por-	por-	2f,</	-rem	-rem,
!	!	!	!	!	!	!	!	!	!LO:TX:a:t=P:problem=kreska pseudotaktowa	!	!	!	!	!
2.G\	om-	om-	2.G\	om-	om-	.	.	.	1g	-ta-	-ta-	2b-\	por-	por-
!	!	!	!	!	!	!LO:TX:a:t=P:problem=kreska pseudotaktowa	!	!	!	!	!	!LO:TX:a:t=P:problem=kreska pseudotaktowa	!	!
.	.	.	.	.	.	2e\	.	.	.	.	.	2g\	-ta-	-ta-
4G\	-ni-	-ni-	4G\	-ni-	-ni-	.	.	.	.	.	.	.	.	.
=20-	=20-	=20-	=20-	=20-	=20-	=20-	=20-	=20-	=20-	=20-	=20-	=20-	=20-	=20-
*xywh-pl-kk--i-130--0009:399,1477,4190,651	*	*	*	*	*	*	*	*	*	*	*	*	*	*
!LO:LB:g=original	!	!	!	!	!	!	!	!	!LO:TX:a:t=P:problem=kreska pseudotaktowa	!	!	!	!	!
2A,<\	-um	-um	2A,<\	-um	-um	2f,<\	-sti	-sti	1f,<	-ſti	-sti,	2cc,<\	-sti	-sti
!LO:TX:a:t=P:problem=kreska pseudotaktowa	!	!	!LO:TX:a:t=P:problem=kreska pseudotaktowa	!	!	!	!	!	!	!	!	!	!	!
2F\	por-	por-	2F\	por-	por-	2.c\	Cre-	Cre-	.	.	.	1ff	Cre-	Cre-
*	*	*	*xywh-pl-kk--i-130--0007:411,1467,5137,645	*	*	*	*	*	*	*	*	*	*	*
!	!	!	!LO:LB:g=original	!	!	!	!	!	!	!	!	!	!	!
4A\	-ta-	-ta-	4A\	-ta-	-ta-	.	.	.	2r	.	.	.	.	.
4B-\	.	.	4B-\	.	.	4d\	.	.	.	.	.	.	.	.
!	!	!	!	!	!	!	!	!	!LO:TX:a:t=P:problem=kreska pseudotaktowa	!	!	!LO:TX:a:t=P:problem=kreska pseudotaktowa	!	!
1c\	.	.	1c\	.	.	4e\	.	.	2c\	Quae	quae	2een\	-a-	-a-
!	!	!	!	!	!	!LO:TX:a:t=P:problem=kreska pseudotaktowa	!	!	!	!	!	!	!	!
.	.	.	.	.	.	4c\	.	.	.	.	.	.	.	.
=21-	=21-	=21-	=21-	=21-	=21-	=21-	=21-	=21-	=21-	=21-	=21-	=21-	=21-	=21-
.	.	.	.	.	.	2f\	.	.	2.d\	om-	om-	1dd	-to-	-to-
!LO:TX:a:t=P:problem=kreska pseudotaktowa	!	!	!LO:TX:a:t=P:problem=kreska pseudotaktowa	!	!	!LO:TX:a:t=P:problem=kreska pseudotaktowa	!	!	!	!	!	!	!	!
2Bn\	.	.	2Bn\	.	.	2f\	-a-	-a-	.	.	.	.	.	.
!	!	!	!	!	!	!	!	!	!LO:TX:a:t=P:problem=kreska pseudotaktowa	!	!	!	!	!
.	.	.	.	.	.	.	.	.	4d\	-ni-	-ni-	.	.	.
*	*	*	*	*	*	*xywh-pl-kk--i-130--0005:454,1352,4941,717	*	*	*	*	*	*	*	*
!	!	!	!	!	!	!LO:LB:g=original	!	!	!	!	!	!	!	!
2c,<\	-sti	-sti	2c,<\	-sti	-sti	4e\	-tor-	-to-	2e\	-um	-um	2cc,<\	-rem	-rem,
.	.	.	.	.	.	4d\	.	.	.	.	.	.	.	.
!	!	!	!	!	!	!LO:TX:a:t=P:problem=kreska pseudotaktowa	!	!	!LO:TX:a:t=P:problem=kreska pseudotaktowa	!	!	!	!	!
1F\	Cre-	Cre-	1F\	Cre-	Cre-	2c\	.	.	2f\	por-	por-	4a\	Cre-	Cre-
!	!	!	!	!	!	!	!	!	!	!	!	!LO:TX:a:t=P:problem=kreska pseudotaktowa	!	!
.	.	.	.	.	.	.	.	.	.	.	.	4a\	-a-	-a-
=22-	=22-	=22-	=22-	=22-	=22-	=22-	=22-	=22-	=22-	=22-	=22-	=22-	=22-	=22-
!	!	!	!	!	!	!	!	!	!LO:TX:a:t=P:problem=kreska pseudotaktowa	!	!	!	!	!
.	.	.	.	.	.	4B-\	.	.	1g	-ta-	-ta-	2b-\	-to-	-to-
.	.	.	.	.	.	4A\	.	.	.	.	.	.	.	.
!LO:TX:a:t=P:problem=kreska pseudotaktowa	!	!	!LO:TX:a:t=P:problem=kreska pseudotaktowa	!	!	!LO:TX:a:t=P:problem=kreska pseudotaktowa	!	!	!	!	!	!LO:TX:a:t=P:problem=kreska pseudotaktowa	!	!
2E\	-a-	-a-	2E\	-a-	-a-	2G/	.	.	.	.	.	2cc\	.	.
2.D\	-to-	-to-	2.D\	-to-	-to-	2A,</	-rem	-rem,	2f,<\	-sti	-sti	2dd\	.	.
.	.	.	.	.	.	4F/	Cre-	Cre-	1f\	Cre-	Cre-	1a\	.	.
!LO:TX:a:t=P:problem=kreska pseudotaktowa	!	!	!	!	!	!LO:TX:a:t=P:problem=kreska pseudotaktowa	!	!	!	!	!	!	!	!
4E\	.	.	4E\	.	.	4G/	-a-	-a-	.	.	.	.	.	.
=23-	=23-	=23-	=23-	=23-	=23-	=23-	=23-	=23-	=23-	=23-	=23-	=23-	=23-	=23-
2F\	.	.	2F\	.	.	4A/	-to-	-to-	.	.	.	.	.	.
.	.	.	.	.	.	4D/	.	.	.	.	.	.	.	.
!LO:TX:a:t=P:problem=kreska pseudotaktowa	!	!	!LO:TX:a:t=P:problem=kreska pseudotaktowa	!	!	!	!	!	!LO:TX:a:t=P:problem=kreska pseudotaktowa	!	!	!LO:TX:a:t=P:problem=kreska pseudotaktowa	!	!
2G\	.	.	2G\	.	.	1d	.	.	2e\	-a-	-a-	2b-\	.	.
!	!	!	!	!	!	!	!	!	!LO:TX:a:t=P:problem=kreska pseudotaktowa	!	!	!LO:TX:a:t=P:problem=kreska pseudotaktowa	!	!
2A\	.	.	2A\	.	.	.	.	.	1e	-to-	-to-	1a	.	.
!LO:TX:a:t=P:problem=kreska pseudotaktowa	!	!	!	!	!	!	!	!	!	!	!	!	!	!
2AA/	.	.	2AA/	.	.	2c#X\	.	.	.	.	.	.	.	.
=24-	=24-	=24-	=24-	=24-	=24-	=24-	=24-	=24-	=24-	=24-	=24-	=24-	=24-	=24-
!	!	!	!	!	!	!LO:TX:a:t=P:problem=kreska pseudotaktowa	!	!	!LO:TX:a:t=P:problem=kreska pseudotaktowa	!	!	!LO:TX:a:t=P:problem=kreska pseudotaktowa	!	!
2D,<\	-rem.	-rem,	2D,<\	-rem.	-rem,	1d	-rem.	-rem,	1f,<	-rem	-rem,	1a,<	-rem.	-rem,
1D	Ge-	ge-	1D	Ge-	ge-	.	.	.	.	.	.	.	.	.
.	.	.	.	.	.	0r	.	.	00r	.	.	2r	.	.
!LO:TX:a:t=P:problem=kreska pseudotaktowa	!	!	!LO:TX:a:t=P:problem=kreska pseudotaktowa	!	!	!	!	!	!	!	!	!	!	!
2C#X/	-nu-	-nu-	2C#X/	-nu-	-nu-	.	.	.	.	.	.	1a\	Ge-	ge-
=25-	=25-	=25-	=25-	=25-	=25-	=25-	=25-	=25-	=25-	=25-	=25-	=25-	=25-	=25-
2D/	-i-	-i-	2D\	-i-	-i-	.	.	.	.	.	.	.	.	.
*	*	*	*	*	*	*	*	*	*	*	*	*custos:a	*	*
!	!	!	!	!	!	!	!	!	!	!	!	!LO:TX:a:t=P:problem=kreska pseudotaktowa	!	!
!LO:TX:a:t=P:problem=kreska pseudotaktowa	!	!	!LO:TX:a:t=P:problem=kreska pseudotaktowa	!	!	!	!	!	!	!	!	!	!	!
2AA,</	-sti	-sti,	2AA/	-sti	-sti,	.	.	.	.	.	.	2a\	-nu-	-nu-
*	*	*	*	*	*	*	*	*	*	*	*	*xywh-pl-kk--i-130--0001:437,2008,4957,777	*	*
!	!	!	!	!	!	!	!	!	!	!	!	!LO:LB:g=original	!	!
2F\	qui	qui	2F\	qui	qui	2r	.	.	.	.	.	2a\	-i-	-i-
!LO:TX:a:t=P:problem=kreska pseudotaktowa	!	!	!	!	!	!	!	!	!	!	!	!LO:TX:a:t=P:problem=kreska pseudotaktowa	!	!
2D\	Te	te	2D\	Te	te	1A\	Ge-	ge-	.	.	.	2dd\	-ſti	-sti,
=26-	=26-	=26-	=26-	=26-	=26-	=26-	=26-	=26-	=26-	=26-	=26-	=26-	=26-	=26-
1E	fe-	fe-	1E	fe-	fe-	.	.	.	.	.	.	2bn\	Qui	qui
!	!	!	!	!	!	!LO:TX:a:t=P:problem=kreska pseudotaktowa	!	!	!	!	!	!LO:TX:a:t=P:problem=kreska pseudotaktowa	!	!
.	.	.	.	.	.	2G#X/	-nu-	-nu-	.	.	.	2b\	Te	te
!	!	!	!	!	!	!	!	!	!LO:TX:a:t=P:problem=kreska pseudotaktowa	!	!	!	!	!
2AA,</	-cit	-cit,	2AA,</	-cit.	-cit,	2A/	-i-	-i-	0r	.	.	(2.cc\	fe-	fe-
1A\	qui	qui	1A\	Qui	qui	2E,</	-sti	-sti,	.	.	.	.	.	.
!	!	!	!	!	!	!	!	!	!	!	!	!LO:TX:a:t=P:problem=kreska pseudotaktowa	!	!
.	.	.	.	.	.	.	.	.	.	.	.	4b\)	.	.
=27-	=27-	=27-	=27-	=27-	=27-	=27-	=27-	=27-	=27-	=27-	=27-	=27-	=27-	=27-
.	.	.	.	.	.	2cny\	Qui	qui	.	.	.	2a\	.	.
!LO:TX:a:t=P:problem=kreska pseudotaktowa	!	!	!LO:TX:a:t=P:problem=kreska pseudotaktowa	!	!	!	!	!	!	!	!	!LO:TX:a:t=P:problem=kreska pseudotaktowa	!	!
!	!	!	!	!	!	!LO:TX:a:t=P:problem=kreska pseudotaktowa	!	!	!	!	!	!	!	!
2F\	Te	te	2F\	Te	te	2A\	Te	te	.	.	.	2a\	-cit.	-cit,
*lig	*	*	*lig	*	*	*	*	*	*	*	*	*	*	*
*xywh-pl-kk--i-130--0009:430,1901,4129,626	*	*	*	*	*	*	*	*	*	*	*	*	*	*
!LO:LB:g=original	!	!	!	!	!	!	!	!	!	!	!	!	!	!
1G	fe-	fe-	1G	fe-	fe-	1Bn	fe-	fe-	2r	.	.	0r	.	.
.	.	.	.	.	.	.	.	.	1d\	Ge-	ge-	.	.	.
=28-	=28-	=28-	=28-	=28-	=28-	=28-	=28-	=28-	=28-	=28-	=28-	=28-	=28-	=28-
!	!	!	!	!	!	!LO:TX:a:t=P:problem=kreska pseudotaktowa	!	!	!	!	!	!	!	!
1A	.	.	1A	.	.	0A,<	-cit.	-cit,	.	.	.	.	.	.
!	!	!	!	!	!	!	!	!	!LO:TX:a:t=P:problem=kreska pseudotaktowa	!	!	!	!	!
.	.	.	.	.	.	.	.	.	2c#X\	-nu-	-nu-	.	.	.
*Xlig	*	*	*Xlig	*	*	*	*	*	*	*	*	*	*	*
!LO:TX:a:t=P:problem=kreska pseudotaktowa	!	!	!LO:TX:a:t=P:problem=kreska pseudotaktowa	!	!	!	!	!	!	!	!	!LO:TX:a:t=P:problem=kreska pseudotaktowa	!	!
0D	-cit	-cit,	0D	-cit	-cit,	.	.	.	2d\	-i-	-i-	1r	.	.
!	!	!	!	!	!	!	!	!	!LO:TX:a:t=P:problem=kreska pseudotaktowa	!	!	!	!	!
.	.	.	.	.	.	.	.	.	2A,</	-sti	-sti,	.	.	.
=29-	=29-	=29-	=29-	=29-	=29-	=29-	=29-	=29-	=29-	=29-	=29-	=29-	=29-	=29-
!	!	!	!	!	!	!LO:TX:a:t=P:problem=kreska pseudotaktowa	!	!	!	!	!	!	!	!
.	.	.	.	.	.	00r	.	.	2f\	Qui	qui	2r	.	.
!	!	!	!	!	!	!	!	!	!LO:TX:a:t=P:problem=kreska pseudotaktowa	!	!	!	!	!
.	.	.	.	.	.	.	.	.	2d\	Te	te	1a	Ge-	ge-
!	!	!	!	!	!	!	!	!	!LO:TX:a:t=P:problem=kreska pseudotaktowa	!	!	!	!	!
*	*	*	*	*	*	*	*	*	*xywh-pl-kk--i-130--0003:439,1811,5197,688	*	*	*	*	*
!LO:TX:a:t=P:problem=kreska pseudotaktowa	!	!	!LO:LB:g=original	!	!	!	!	!	!LO:LB:g=original	!	!	!	!	!
*	*	*	*xywh-pl-kk--i-130--0007:397,1926,5151,652	*	*	*	*	*	*	*	*	*	*	*
0r	.	.	0r	.	.	.	.	.	1e	fe-	fe-	.	.	.
!	!	!	!	!	!	!	!	!	!	!	!	!LO:TX:a:t=P:problem=kreska pseudotaktowa	!	!
.	.	.	.	.	.	.	.	.	.	.	.	2g#X\	-nu-	-nu-
=30-	=30-	=30-	=30-	=30-	=30-	=30-	=30-	=30-	=30-	=30-	=30-	=30-	=30-	=30-
!	!	!	!	!	!	!	!	!	!	!	!	!	!	!
.	.	.	.	.	.	.	.	.	2A,</	-cit,	-cit,	2a\	-i-	-i-
!	!	!	!	!	!	!	!	!	!	!	!	!LO:TX:a:t=P:problem=kreska pseudotaktowa	!	!
.	.	.	.	.	.	.	.	.	1cny	Qui	qui	2e/	-sti	-sti,
2r	.	.	2r	.	.	.	.	.	.	.	.	2cc\	qui	qui
!LO:TX:a:t=P:problem=kreska pseudotaktowa	!	!	!LO:TX:a:t=P:problem=kreska pseudotaktowa	!	!	!	!	!	!LO:TX:a:t=P:problem=kreska pseudotaktowa	!	!	!	!	!
2A\	et	et	2A\	et	et	.	.	.	2e\	.	.	2a\	Te	te
=31-	=31-	=31-	=31-	=31-	=31-	=31-	=31-	=31-	=31-	=31-	=31-	=31-	=31-	=31-
!	!	!	!	!	!	!	!	!	!LO:TX:a:t=P:problem=kreska pseudotaktowa	!	!	!	!	!
2A\	in	in	2A\	in	in	2r	.	.	1d	Te	te	1bn	fe-	fe-
!LO:TX:a:t=P:problem=kreska pseudotaktowa	!	!	!	!	!	!LO:TX:a:t=P:problem=kreska pseudotaktowa	!	!	!	!	!	!	!	!
2G#X\	ae-	ae-	2G#X\	ae-	ae-	2e\	et	et	.	.	.	.	.	.
2A\	-ter-	-ter-	2A\	-ter-	-ter-	2e\	in	in	2c/	fe-	fe-	2e,</	-cit	-cit,
*	*	*	*	*	*	*xywh-pl-kk--i-130--0005:447,1813,4991,717	*	*	*	*	*	*	*	*
!LO:TX:a:t=P:problem=kreska pseudotaktowa	!	!	!	!	!	!LO:TX:a:t=P:problem=kreska pseudotaktowa	!	!	!LO:TX:a:t=P:problem=kreska pseudotaktowa	!	!	!LO:TX:a:t=P:problem=kreska pseudotaktowa	!	!
2E\	.	.	2E\	.	.	2e\	ae-	ae-	2Bn/	.	.	2ee\	et	et
=32-	=32-	=32-	=32-	=32-	=32-	=32-	=32-	=32-	=32-	=32-	=32-	=32-	=32-	=32-
*lig	*	*	*lig	*	*	*	*	*	*	*	*	*	*	*
!	!	!	!	!	!	!LO:LB:g=original	!	!	!	!	!	!	!	!
1F	.	.	1F	.	.	(2c\	-ter-	-ter-	2A,</	-cit	-cit,	2ee\	in	in
!	!	!	!	!	!	!	!	!	!LO:TX:a:t=P:problem=kreska pseudotaktowa	!	!	!LO:TX:a:t=P:problem=kreska pseudotaktowa	!	!
.	.	.	.	.	.	2d\)	.	.	2a\	et	et	2dd\	ae-	ae-
1E	.	.	1E	.	.	1Bn	-num	-num	2a\	in	in	2ee\	-ter-	-ter-
!	!	!	!	!	!	!	!	!	!LO:TX:a:t=P:problem=kreska pseudotaktowa	!	!	!LO:TX:a:t=P:problem=kreska pseudotaktowa	!	!
.	.	.	.	.	.	.	.	.	2g#X\	ae-	ae-	2bn\	.	.
*Xlig	*	*	*Xlig	*	*	*	*	*	*	*	*	*	*	*
=33-	=33-	=33-	=33-	=33-	=33-	=33-	=33-	=33-	=33-	=33-	=33-	=33-	=33-	=33-
!LO:TX:a:t=P:problem=kreska pseudotaktowa	!	!	!LO:TX:a:t=P:problem=kreska pseudotaktowa	!	!	!	!	!	!LO:TX:a:t=P:problem=kreska pseudotaktowa	!	!	!	!	!
1AA,<	num	num	1AA	-num	-num	2A,<\	per	per	1a	-ter-	-ter-	1cc	.	.
!	!	!	!	!	!	!LO:TX:a:t=P:problem=kreska pseudotaktowa	!	!	!	!	!	!	!	!
.	.	.	.	.	.	[<2c\	ma-	ma-	.	.	.	.	.	.
*lig	*	*	*lig	*	*	*	*	*	*lig	*	*	*	*	*
!	!	!	!	!	!	!LO:MO:mod=!null:null	!	!	!	!	!	!	!	!
!	!	!	!	!	!	!LO:N:xstem:cue	!	!	!	!	!	!	!	!
1Cny	per-	per-	1Cny	per-	per-	4c]	.	.	1e	.	.	(2g\	.	.
.	.	.	.	.	.	4Bn\	.	.	.	.	.	.	.	.
!	!	!	!	!	!	!LO:TX:a:t=P:problem=kreska pseudotaktowa	!	!	!	!	!	!	!	!
.	.	.	.	.	.	2A\	-nes	-nes,	.	.	.	2cc\)	.	.
=34-	=34-	=34-	=34-	=34-	=34-	=34-	=34-	=34-	=34-	=34-	=34-	=34-	=34-	=34-
*	*	*	*	*	*	*	*	*	*	*	*	*custos:g	*	*
!	!	!	!	!	!	!	!	!	!	!	!	!LO:TX:a:t=P:problem=kreska pseudotaktowa	!	!
!LO:TX:a:t=P:problem=kreska pseudotaktowa	!	!	!	!	!	!	!	!	!	!	!	!	!	!
1D	.	.	1D	.	.	1d	Vir-	Vir-	1f	.	.	1a,<	-num	-num
*Xlig	*	*	*	*	*	*	*	*	*Xlig	*	*	*	*	*
!LO:TX:a:t=P:problem=kreska pseudotaktowa	!	!	!LO:TX:a:t=P:problem=kreska pseudotaktowa	!	!	!	!	!	!LO:TX:a:t=P:problem=kreska pseudotaktowa	!	!	!	!	!
*	*	*	*	*	*	*	*	*	*	*	*	*xywh-pl-kk--i-130--0001:437,2578,4936,659	*	*
!	!	!	!	!	!	!	!	!	!	!	!	!LO:LB:g=original	!	!
1En	.	.	1E	.	.	2Bn,<\	-go	-go,	1e,<	-num	-num	1g	per-	per-
!	!	!	!	!	!	!LO:TX:a:t=P:problem=kreska pseudotaktowa	!	!	!	!	!	!	!	!
.	.	.	.	.	.	[<2c\	per-	per-	.	.	.	.	.	.
*	*	*	*Xlig	*	*	*	*	*	*	*	*	*	*	*
=35-	=35-	=35-	=35-	=35-	=35-	=35-	=35-	=35-	=35-	=35-	=35-	=35-	=35-	=35-
!	!	!	!	!	!	!LO:MO:mod=!null:null	!	!	!	!	!	!	!	!
!	!	!	!	!	!	!LO:N:xstem:cue	!	!	!	!	!	!	!	!
2.F\	-ma-	-ma-	2.F\	-ma-	-ma-	4c]	.	.	2.c\	per-	per-	2.a\	.	.
.	.	.	.	.	.	4Bn\	-ma-	-ma-	.	.	.	.	.	.
!	!	!	!	!	!	!LO:TX:a:t=P:problem=kreska pseudotaktowa	!	!	!	!	!	!	!	!
.	.	.	.	.	.	2A/	-nes	-nes,	.	.	.	.	.	.
!LO:TX:a:t=P:problem=kreska pseudotaktowa	!	!	!LO:TX:a:t=P:problem=kreska pseudotaktowa	!	!	!	!	!	!LO:TX:a:t=P:problem=kreska pseudotaktowa	!	!	!LO:TX:a:t=P:problem=kreska pseudotaktowa	!	!
4E\	.	.	4E\	.	.	.	.	.	4c\	-ma-	-ma-	4a\	-ma-	-ma-
*	*	*	*	*	*	*	*ij	*ij	*	*	*	*	*	*
2D,</	-nes	-nes,	2D,<\	-nes	-nes,	2.d\	per-	per-	2d,<\	-nes	-nes,	2a,<\	-nes	-nes,
*	*ij	*ij	*	*ij	*ij	*	*	*	*	*ij	*ij	*	*	*
!	!	!	!LO:TX:t=P::problem=kreska pseudotaktowa&colon;między nutą i kropką	!	!	!	!	!	!LO:TX:a:t=P:problem=kreska pseudotaktowa	!	!	!	!	!
2.Gny\	per-	per-	2.Gny\	per-	per-	.	.	.	[<2d\	per-	per-	1bn\	per-	per-
.	.	.	.	.	.	4c\	-ma-	-ma-	.	.	.	.	.	.
=36-	=36-	=36-	=36-	=36-	=36-	=36-	=36-	=36-	=36-	=36-	=36-	=36-	=36-	=36-
!	!	!	!	!	!	!	!	!	!LO:MO:mod=!null:null	!	!	!	!	!
!	!	!	!	!	!	!	!	!	!LO:N:xstem:cue	!	!	!	!	!
.	.	.	.	.	.	2Bn,<\	-nes	-nes,	4d]	.	.	.	.	.
*	*	*	*	*	*	*	*Xij	*Xij	*	*	*	*	*	*
4F\	-ma-	-ma-	4F\	-ma-	-ma-	.	.	.	4d\	-ma-	-ma-	.	.	.
!LO:TX:a:t=P:problem=kreska pseudotaktowa	!	!	!LO:TX:a:t=P:problem=kreska pseudotaktowa	!	!	!	!	!	!LO:TX:a:t=P:problem=kreska pseudotaktowa	!	!	!	!	!
2E\	-nes	-nes,	2E\	-nes	-nes,	2.e\	per-	per-	2e,<\	-nes	-nes,	2.cc\	.	.
*	*Xij	*Xij	*	*Xij	*Xij	*	*	*	*	*Xij	*Xij	*	*	*
2.A\	per-	per-	2.A\	per-	per-	.	.	.	2.e\	per-	per-	.	.	.
.	.	.	.	.	.	4d\	-ma-	-ma-	.	.	.	4cc\	-ma-	-ma-
!	!	!	!	!	!	!LO:TX:a:t=P:problem=kreska pseudotaktowa	!	!	!	!	!	!LO:TX:a:t=P:problem=kreska pseudotaktowa	!	!
.	.	.	.	.	.	2c\	-nes	-nes,	.	.	.	2cc\	-nes	-nes,
!	!	!	!	!	!	!	!	!	!LO:TX:a:t=P:problem=kreska pseudotaktowa	!	!	!	!	!
4G\	-ma-	-ma-	4G\	-ma-	-ma-	.	.	.	4e\	-ma-	-ma-	.	.	.
=37-	=37-	=37-	=37-	=37-	=37-	=37-	=37-	=37-	=37-	=37-	=37-	=37-	=37-	=37-
!LO:TX:a:t=P:problem=kreska pseudotaktowa	!	!	!LO:TX:a:t=P:problem=kreska pseudotaktowa	!	!	!	!	!	!	!	!	!	!	!
*	*	*	*	*	*	*lig	*	*	*	*	*	*	*	*
1F	-nes	-nes,	1F	-nes	-nes,	1A	Vir-	Vir-	2f,<\	-nes	-nes,	2r	.	.
!	!	!	!	!	!	!	!	!	!LO:TX:a:t=P:problem=kreska pseudotaktowa	!	!	!LO:TX:a:t=P:problem=kreska pseudotaktowa	!	!
.	.	.	.	.	.	.	.	.	2d\	Vir-	Vir-	2cc\	et	et
!LO:TX:a:t=P:problem=kreska pseudotaktowa	!	!	!	!	!	!	!	!	!	!	!	!	!	!
*xywh-pl-kk--i-130--0009:454,2313,4141,694	*	*	*	*	*	*	*	*	*	*	*	*	*	*
!LO:LB:g=original	!	!	!	!	!	!	!	!	!	!	!	!	!	!
1G	Vir-	Vir-	1G	Vir-	Vir-	1d	.	.	2.gny\	.	.	2cc\	in	in
.	.	.	.	.	.	.	.	.	.	.	.	2bn\	ae-	ae-
*	*	*	*	*	*	*	*	*	*custos:e	*	*	*	*	*
!	!	!	!	!	!	!	!	!	!LO:TX:a:t=P:problem=kreska pseudotaktowa	!	!	!	!	!
!	!	!	!	!	!	!	!	!	!	!	!	!LO:TX:a:t=P:problem=kreska pseudotaktowa	!	!
.	.	.	.	.	.	.	.	.	4f\	.	.	.	.	.
*	*	*	*	*	*	*Xlig	*	*	*	*	*	*	*	*
=38-	=38-	=38-	=38-	=38-	=38-	=38-	=38-	=38-	=38-	=38-	=38-	=38-	=38-	=38-
!	!	!	!	!	!	!LO:TX:a:t=P:problem=kreska pseudotaktowa	!	!	!	!	!	!	!	!
*	*	*	*	*	*	*	*	*	*xywh-pl-kk--i-130--0003:420,2309,5126,660	*	*	*	*	*
!	!	!	!	!	!	!	!	!	!LO:LB:g=original	!	!	!	!	!
2C,</	-go	-go,	2C,</	-go	-go,	1c,<	-go.	-go,	4e\	.	.	(2cc\	-ter-	-ter-
.	.	.	.	.	.	.	.	.	4d\	.	.	.	.	.
!LO:TX:a:t=P:problem=kreska pseudotaktowa	!	!	!LO:TX:a:t=P:problem=kreska pseudotaktowa	!	!	!	!	!	!LO:TX:a:t=P:problem=kreska pseudotaktowa	!	!	!LO:TX:a:t=P:problem=kreska pseudotaktowa	!	!
2F\	et	et	2F\	et	et	.	.	.	2c/	.	.	2a\)	.	.
2F\	in	in	2F\	in	in	2r	.	.	(2d\	.	.	1g	.	.
*	*	*	*	*	*	*custos:c	*	*	*	*	*	*	*	*
!	!	!	!	!	!	!LO:TX:a:t=P:problem=kreska pseudotaktowa	!	!	!	!	!	!	!	!
!LO:TX:a:t=P:problem=kreska pseudotaktowa	!	!	!	!	!	!	!	!	!	!	!	!	!	!
2E\	ae-	ae-	2E\	ae-	ae-	2c\	et	et	2e\)	.	.	.	.	.
=39-	=39-	=39-	=39-	=39-	=39-	=39-	=39-	=39-	=39-	=39-	=39-	=39-	=39-	=39-
*	*	*	*	*	*	*xywh-pl-kk--i-130--0005:440,2247,4984,731	*	*	*	*	*	*	*	*
!	!	!	!	!	!	!LO:LB:g=original	!	!	!LO:TX:a:t=P:problem=kreska pseudotaktowa	!	!	!	!	!
2F\	-ter-	-ter-	2F\	-ter-	-ter-	2c\	in	in	1c	-go	-go,	2f,</	-num	-num
!	!	!	!	!	!	!LO:TX:a:t=P:problem=kreska pseudotaktowa	!	!	!	!	!	!	!	!
2C/	.	.	2C/	.	.	2c\	ae-	ae-	.	.	.	2.cc\	per-	per-
!LO:TX:a:t=P:problem=kreska pseudotaktowa	!	!	!LO:TX:a:t=P:problem=kreska pseudotaktowa	!	!	!	!	!	!	!	!	!	!	!
1D	.	.	1D	.	.	(2A\	-ter-	-ter-	2r	.	.	.	.	.
.	.	.	.	.	.	.	.	.	.	.	.	4cc\	-ma-	-ma-
!	!	!	!	!	!	!LO:TX:a:t=P:problem=kreska pseudotaktowa	!	!	!LO:TX:a:t=P:problem=kreska pseudotaktowa	!	!	!LO:TX:a:t=P:problem=kreska pseudotaktowa	!	!
.	.	.	.	.	.	2Bn\)	.	.	2f\	et	et	2bn\	-nes	-nes,
=40-	=40-	=40-	=40-	=40-	=40-	=40-	=40-	=40-	=40-	=40-	=40-	=40-	=40-	=40-
!	!	!	!LO:TX:a:t=P:problem=kreska pseudotaktowa	!	!	!	!	!	!	!	!	!	!	!
*	*	*	*xywh-pl-kk--i-130--0007:418,2350,5237,710	*	*	*	*	*	*	*	*	*	*	*
!	!	!	!LO:LB:g=original	!	!	!	!	!	!	!	!	!	!	!
1C,<	-num	-num,	1C,<	-num	-num,	2Gny,</	-num	-num,	2f\	in	in	1cc	Vir-	Vir-
!	!	!	!	!	!	!LO:TX:a:t=P:problem=kreska pseudotaktowa	!	!	!LO:TX:a:t=P:problem=kreska pseudotaktowa	!	!	!	!	!
.	.	.	.	.	.	2c\	in	in	2e\	ae-	ae-	.	.	.
*	*	*	*	*	*	*	*	*	*lig	*	*	*	*	*
2D/	et	et	2D/	et	et	2A\	ae-	ae-	1f	-ter-	-ter-	(<2f/	.	.
!	!	!	!	!	!	!LO:TX:a:t=P:problem=kreska pseudotaktowa	!	!	!	!	!	!	!	!
1D\	in	in	1D\	in	in	2d\	-ter-	-ter-	.	.	.	2a\)	.	.
=41-	=41-	=41-	=41-	=41-	=41-	=41-	=41-	=41-	=41-	=41-	=41-	=41-	=41-	=41-
!	!	!	!	!	!	!	!	!	!	!	!	!LO:TX:a:t=P:problem=kreska pseudotaktowa	!	!
.	.	.	.	.	.	2G,</	-num	-num,	1e	.	.	1g	.	.
!LO:TX:a:t=P:problem=kreska pseudotaktowa	!	!	!LO:TX:a:t=P:problem=kreska pseudotaktowa	!	!	!LO:TX:a:t=P:problem=kreska pseudotaktowa	!	!	!	!	!	!	!	!
2C#X/	ae-	ae-	2C#X/	ae-	ae-	2A\	et	et	.	.	.	.	.	.
*	*	*	*	*	*	*	*	*	*Xlig	*	*	*	*	*
2D/	-ter-	-ter-	2D/	-ter-	-ter-	2A\	in	in	2d\	.	.	2f,</	-go	-go,
!LO:TX:a:t=P:problem=kreska pseudotaktowa	!	!	!	!	!	!LO:TX:a:t=P:problem=kreska pseudotaktowa	!	!	!LO:TX:a:t=P:problem=kreska pseudotaktowa	!	!	!LO:TX:a:t=P:problem=kreska pseudotaktowa	!	!
2AA/	.	.	2AA/	.	.	2A\	ae-	ae-	2c#X/	.	.	2a\	et	et
=42-	=42-	=42-	=42-	=42-	=42-	=42-	=42-	=42-	=42-	=42-	=42-	=42-	=42-	=42-
*lig	*	*	*lig	*	*	*	*	*	*	*	*	*	*	*
1BB-	.	.	1BB-	.	.	(2F/	-ter-	-ter-	2d,<\	-num	-num,	2a\	in	in
*	*	*	*	*	*	*	*	*	*	*	*	*custos:a	*	*
*	*	*	*	*	*	*	*	*	*	*	*	*xywh-pl-kk--i-130--0001:478,3043,4909,708	*	*
!	!	!	!	!	!	!	!	!	!	!	!	!LO:TX:a:t=P:problem=kreska pseudotaktowa	!	!
!	!	!	!	!	!	!	!	!	!LO:TX:a:t=P:problem=kreska pseudotaktowa	!	!	!	!	!
.	.	.	.	.	.	2G/)	.	.	2d\	et	et	2g\	ae-	ae-
!	!	!	!	!	!	!	!	!	!	!	!	!LO:LB:g=original	!	!
1AA	.	.	1AA	.	.	1E	.	.	2d\	in	in	2a\	-ter-	-ter-
!	!	!	!	!	!	!	!	!	!LO:TX:a:t=P:problem=kreska pseudotaktowa	!	!	!LO:TX:a:t=P:problem=kreska pseudotaktowa	!	!
.	.	.	.	.	.	.	.	.	2c#X/	ae-	ae-	2e/	.	.
*Xlig	*	*	*Xlig	*	*	*	*	*	*	*	*	*	*	*
=43-	=43-	=43-	=43-	=43-	=43-	=43-	=43-	=43-	=43-	=43-	=43-	=43-	=43-	=43-
!LO:TX:a:t=P:problem=kreska pseudotaktowa	!	!	!LO:TX:a:t=P:problem=kreska pseudotaktowa	!	!	!	!	!	!	!	!	!	!	!
1D,<	-num	-num	1D,<	-num	-num	2D,</	-num	-num	1d	-ter-	-ter-	2f,</	-num	-num
!	!	!	!	!	!	!	!	!	!	!	!	!LO:TX:a:t=P:problem=kreska pseudotaktowa	!	!
.	.	.	.	.	.	2.A/	per-	per-	.	.	.	[<2f/	per-	per-
*lig	*	*	*lig	*	*	*	*	*	*	*	*	*	*	*
!	!	!	!	!	!	!	!	!	!LO:TX:a:t=P:problem=kreska pseudotaktowa	!	!	!	!	!
!	!	!	!	!	!	!	!	!	!	!	!	!LO:MO:mod=!null:null	!	!
!	!	!	!	!	!	!	!	!	!	!	!	!LO:N:xstem:cue	!	!
1F	per-	per-	1F	per-	per-	.	.	.	1A,<	-num	-num	4f]	.	.
.	.	.	.	.	.	4G/	-ma-	-ma-	.	.	.	4e/	-ma-	-ma-
!	!	!	!	!	!	!LO:TX:a:t=P:problem=kreska pseudotaktowa	!	!	!	!	!	!LO:TX:a:t=P:problem=kreska pseudotaktowa	!	!
.	.	.	.	.	.	2F/	-nes	-nes,	.	.	.	2d/	-nes	-nes,
=44-	=44-	=44-	=44-	=44-	=44-	=44-	=44-	=44-	=44-	=44-	=44-	=44-	=44-	=44-
*	*	*	*	*	*	*	*	*	*	*	*	*	*ij	*ij
!	!	!	!	!	!	!	!	!	!LO:TX:a:t=P:problem=kreska pseudotaktowa	!	!	!	!	!
1G	.	.	1G	.	.	(2B-y\	Vir-	Vir-	1r	.	.	2.g\	per-	per-
.	.	.	.	.	.	2G/)	.	.	.	.	.	.	.	.
!	!	!	!	!	!	!	!	!	!	!	!	!LO:TX:a:t=P:problem=kreska pseudotaktowa	!	!
.	.	.	.	.	.	.	.	.	.	.	.	4f/	-ma-	-ma-
*Xlig	*	*	*Xlig	*	*	*	*	*	*	*	*	*	*	*
2A\	.	.	2A\	.	.	2c\	.	.	2r	.	.	2e,</	-nes	-nes,
*	*	*	*	*	*	*	*	*	*	*	*	*	*Xij	*Xij
!LO:TX:a:t=P:problem=kreska pseudotaktowa	!	!	!LO:TX:a:t=P:problem=kreska pseudotaktowa	!	!	!LO:TX:a:t=P:problem=kreska pseudotaktowa	!	!	!LO:TX:a:t=P:problem=kreska pseudotaktowa	!	!	!	!	!
2AA/	.	.	2AA/	.	.	2c,<\	-go	-go,	[<2f\	per-	per-	4a\	Vir-	Vir-
!	!	!	!	!	!	!	!	!	!	!	!	!LO:TX:a:t=P:problem=kreska pseudotaktowa	!	!
.	.	.	.	.	.	.	.	.	.	.	.	4a,<\	-go	-go,
=45-	=45-	=45-	=45-	=45-	=45-	=45-	=45-	=45-	=45-	=45-	=45-	=45-	=45-	=45-
!	!	!	!	!	!	!	!	!	!LO:MO:mod=!null:null	!	!	!	!	!
*	*	*	*	*	*	*xywh-pl-kk--i-130--0005:483,2786,4927,631	*	*	*	*	*	*	*	*
!	!	!	!	!	!	!LO:LB:g=original	!	!	!LO:N:xstem:cue	!	!	!	!	!
2.BB-/	-ma-	-ma-	2.BB-/	-ma-	-ma-	2r	.	.	4f]	.	.	1f	per-	per-
.	.	.	.	.	.	.	.	.	4e\	-ma-	-ma-	.	.	.
!	!	!	!	!	!	!	!	!	!LO:TX:a:t=P:problem=kreska pseudotaktowa	!	!	!	!	!
.	.	.	.	.	.	2.B-\	per-	per-	2d\	-nes	-nes,	.	.	.
!LO:TX:a:t=P:problem=kreska pseudotaktowa	!	!	!	!	!	!	!	!	!	!	!	!	!	!
4AA/	.	.	4AA/	.	.	.	.	.	.	.	.	.	.	.
*	*	*	*	*	*	*	*	*	*	*ij	*ij	*	*	*
2GG,</	-nes	-nes,	2GG,</	-nes	-nes,	.	.	.	2.g\	per-	per-	[<1g	.	.
.	.	.	.	.	.	4A/	-ma-	-ma-	.	.	.	.	.	.
*	*ij	*ij	*	*ij	*ij	*	*	*	*	*	*	*	*	*
!	!	!	!LO:TX:a:t=P:problem=kreska pseudotaktowa	!	!	!LO:TX:a:t=P:problem=kreska pseudotaktowa	!	!	!	!	!	!	!	!
2.Cny/	per-	per-	[<2Cny/	per-	per-	2G/	-nes	-nes,	.	.	.	.	.	.
!	!	!	!	!	!	!	!	!	!LO:TX:a:t=P:problem=kreska pseudotaktowa	!	!	!	!	!
.	.	.	.	.	.	.	.	.	4f\	-ma-	-ma-	.	.	.
=46-	=46-	=46-	=46-	=46-	=46-	=46-	=46-	=46-	=46-	=46-	=46-	=46-	=46-	=46-
*	*	*	*	*	*	*	*ij	*ij	*	*	*	*	*	*
!	!	!	!LO:MO:mod=!null:null	!	!	!	!	!	!	!	!	!	!	!
!	!	!	!LO:N:xstem:cue	!	!	!	!	!	!	!	!	!	!	!
.	.	.	4C]	.	.	2.c\	per-	per-	2e,<\	-nes	-nes,	2g]	.	.
*	*	*	*	*	*	*	*	*	*	*Xij	*Xij	*	*	*
4BB-/	-ma-	-ma-	4BB-/	-ma-	-ma-	.	.	.	.	.	.	.	.	.
!LO:TX:a:t=P:problem=kreska pseudotaktowa	!	!	!	!	!	!	!	!	!	!	!	!LO:TX:a:t=P:problem=kreska pseudotaktowa	!	!
2AA/	-nes	-nes,	2AA,</	-nes	-nes,	.	.	.	2.a\	per-	per-	[<2a\	.	.
*	*Xij	*Xij	*	*Xij	*Xij	*	*	*	*	*	*	*	*	*
.	.	.	.	.	.	4B-\	-ma-	-ma-	.	.	.	.	.	.
!	!	!	!	!	!	!	!	!	!	!	!	!LO:MO:mod=!null:null	!	!
*xywh-pl-kk--i-130--0010:417,494,4115,722	*	*	*	*	*	*	*	*	*	*	*	*	*	*
!LO:PB:g=original	!	!	!	!	!	!	!	!	!	!	!	!LO:N:xstem:cue	!	!
2.D/	per-	per-	2.D\	per-	per-	2A,<\	-nes	-nes,	.	.	.	4a]	.	.
*	*	*	*	*	*	*	*Xij	*Xij	*	*	*	*	*	*
.	.	.	.	.	.	.	.	.	4g\	-ma-	-ma-	4a\	-ma-	-ma-
!	!	!	!	!	!	!LO:TX:a:t=P:problem=kreska pseudotaktowa	!	!	!LO:TX:a:t=P:problem=kreska pseudotaktowa	!	!	!LO:TX:a:t=P:problem=kreska pseudotaktowa	!	!
.	.	.	.	.	.	[<2d\	per-	per-	2f\	-nes	-nes,	2a\	-nes	-nes,
4C/	-ma-	-ma-	4C/	-ma-	-ma-	.	.	.	.	.	.	.	.	.
=47-	=47-	=47-	=47-	=47-	=47-	=47-	=47-	=47-	=47-	=47-	=47-	=47-	=47-	=47-
!LO:TX:a:t=P:problem=kreska pseudotaktowa	!	!	!LO:TX:a:t=P:problem=kreska pseudotaktowa	!	!	!	!	!	!	!	!	!	!	!
!	!	!	!	!	!	!LO:MO:mod=!null:null	!	!	!	!	!	!	!	!
*	*	*	*	*	*	*	*	*	*xywh-pl-kk--i-130--0003:456,2778,5083,710	*	*	*	*	*
!	!	!	!	!	!	!LO:N:xstem:cue	!	!	!LO:LB:g=original	!	!	!	!	!
1BB-	-nes	-nes,	1BB-,<	-nes	-nes,	4d]	.	.	1.f	Vir-	Vir-	4b-y\	Vir-	Vir-
.	.	.	.	.	.	4c\	-ma-	-ma-	.	.	.	4cc\	.	.
!	!	!	!	!	!	!LO:TX:a:t=P:problem=kreska pseudotaktowa	!	!	!	!	!	!LO:TX:a:t=P:problem=kreska pseudotaktowa	!	!
.	.	.	.	.	.	2B-\	-nes	-nes,	.	.	.	2dd\	.	.
1C	Vir-	Vir-	1C	Vir-	Vir-	2A/	Vir-	Vir-	.	.	.	1cc	.	.
!	!	!	!	!	!	!	!	!	!LO:TX:a:t=P:problem=kreska pseudotaktowa	!	!	!	!	!
.	.	.	.	.	.	2G/	.	.	2e\	.	.	.	.	.
=48-	=48-	=48-	=48-	=48-	=48-	=48-	=48-	=48-	=48-	=48-	=48-	=48-	=48-	=48-
!	!	!	!	!	!	!	!	!	!	!	!	!LO:TX:a:t=P:problem=kreska pseudotaktowa	!	!
2FF,</	-go	-go,	2FF,</	-go	-go,	4F/	.	.	2f,<\	-go	-go,	1a,<	-go.	-go,
.	.	.	.	.	.	4G/	.	.	.	.	.	.	.	.
!LO:TX:a:t=P:problem=kreska pseudotaktowa	!	!	!	!	!	!LO:TX:a:t=P:problem=kreska pseudotaktowa	!	!	!LO:TX:a:t=P:problem=kreska pseudotaktowa	!	!	!	!	!
2F\	et	et	2F\	et	et	2A\	.	.	2cny/	et	et	.	.	.
2F\	in	in	2F\	in	in	1G	.	.	2d\	in	in	2r	.	.
!	!	!	!LO:TX:a:t=P:problem=kreska pseudotaktowa	!	!	!	!	!	!LO:TX:a:t=P:problem=kreska pseudotaktowa	!	!	!LO:TX:a:t=P:problem=kreska pseudotaktowa	!	!
2E\	ae-	ae-	2E\	ae-	ae-	.	.	.	2g\	ae-	ae-	2cc\	et	et
=49-	=49-	=49-	=49-	=49-	=49-	=49-	=49-	=49-	=49-	=49-	=49-	=49-	=49-	=49-
2F\	-ter-	-ter-	2F\	-ter-	-ter-	2A/	-go.	-go,	4c\	-ter-	-ter-	2cc\	in	in
.	.	.	.	.	.	.	.	.	4d\	.	.	.	.	.
!	!	!	!LO:TX:a:t=P:problem=kreska pseudotaktowa	!	!	!LO:TX:a:t=P:problem=kreska pseudotaktowa	!	!	!	!	!	!LO:TX:a:t=P:problem=kreska pseudotaktowa	!	!
2C/	.	.	2C/	.	.	2r	.	.	4e\	.	.	2cc\	ae-	ae-
!	!	!	!	!	!	!	!	!	!LO:TX:a:t=P:problem=kreska pseudotaktowa	!	!	!	!	!
.	.	.	.	.	.	.	.	.	4d\	.	.	.	.	.
*	*	*	*xywh-pl-kk--i-130--0007:382,2830,5223,710	*	*	*	*	*	*	*	*	*	*	*
!	!	!	!LO:LB:g=original	!	!	!	!	!	!	!	!	!	!	!
1D	.	.	1D	.	.	2rc	.	.	2c/	.	.	(2a\	ter-	ter-
!	!	!	!	!	!	!LO:TX:a:t=P:problem=kreska pseudotaktowa	!	!	!LO:TX:a:t=P:problem=kreska pseudotaktowa	!	!	!LO:TX:a:t=P:problem=kreska pseudotaktowa	!	!
.	.	.	.	.	.	2f\	et	et	2Bn/	.	.	2dd\)	.	.
=50-	=50-	=50-	=50-	=50-	=50-	=50-	=50-	=50-	=50-	=50-	=50-	=50-	=50-	=50-
!LO:TX:a:t=P:problem=kreska pseudotaktowa	!	!	!LO:TX:a:t=P:problem=kreska pseudotaktowa	!	!	!	!	!	!	!	!	!	!	!
*	*	*	*	*	*	*	*	*	*	*	*	*xywh-pl-kk--i-130--0001:478,3501,4902,847	*	*
!	!	!	!	!	!	!	!	!	!	!	!	!LO:LB:g=original	!	!
1C,<	-num.	-num	1C,<	-num	-num	2f\	in	in	2c,<\	-num	-num	2g,</	-num	-num
!	!	!	!	!	!	!	!	!	!	!	!	!LO:TX:a:t=P:problem=kreska pseudotaktowa	!	!
.	.	.	.	.	.	2e\	ae-	ae-	1c	per-	per-	2g/	per-	per-
*lig	*	*	*lig	*	*	*	*	*	*	*	*	*lig	*	*
1F	per-	per-	1F	per-	per-	4f\	-ter-	-ter-	.	.	.	1a	.	.
.	.	.	.	.	.	4e\	.	.	.	.	.	.	.	.
*	*	*	*	*	*	*	*	*	*lig	*	*	*	*	*
.	.	.	.	.	.	4d\	.	.	1d\	.	.	.	.	.
!	!	!	!	!	!	!LO:TX:a:t=P:problem=kreska pseudotaktowa	!	!	!	!	!	!	!	!
.	.	.	.	.	.	4c\	.	.	.	.	.	.	.	.
=51-	=51-	=51-	=51-	=51-	=51-	=51-	=51-	=51-	=51-	=51-	=51-	=51-	=51-	=51-
!	!	!	!	!	!	!	!	!	!	!	!	!LO:TX:a:t=P:problem=kreska pseudotaktowa	!	!
!	!	!	!	!	!	!LO:SIC:s=1B-:v	!	!	!	!	!	!	!	!
1G	.	.	1G	.	.	1B-X	.	.	.	.	.	1b-	.	.
.	.	.	.	.	.	.	.	.	1e	.	.	.	.	.
*Xlig	*	*	*Xlig	*	*	*	*	*	*Xlig	*	*	*Xlig	*	*
2A\	.	.	2A\	.	.	2A,<\	-num	-num	.	.	.	4cc\	.	.
.	.	.	.	.	.	.	.	.	.	.	.	4b-\	.	.
!	!	!	!LO:TX:a:t=P:problem=kreska pseudotaktowa	!	!	!LO:TX:a:t=P:problem=kreska pseudotaktowa	!	!	!LO:TX:a:t=P:problem=kreska pseudotaktowa	!	!	!	!	!
2AA/	.	.	2AA/	.	.	2c\	per-	per-	[<2f\	.	.	4a\	.	.
!	!	!	!	!	!	!	!	!	!	!	!	!LO:TX:a:t=P:problem=kreska pseudotaktowa	!	!
.	.	.	.	.	.	.	.	.	.	.	.	4g\	.	.
=52-	=52-	=52-	=52-	=52-	=52-	=52-	=52-	=52-	=52-	=52-	=52-	=52-	=52-	=52-
*	*	*	*	*	*	*custos:e	*	*	*	*	*	*	*	*
!	!	!	!	!	!	!LO:TX:a:t=P:problem=kreska pseudotaktowa	!	!	!	!	!	!	!	!
!	!	!	!	!	!	!	!	!	!LO:MO:mod=!null:null	!	!	!	!	!
!	!	!	!	!	!	!	!	!	!LO:N:xstem:cue	!	!	!	!	!
2.BB-/	-ma-	-ma-	2.BB-/	-ma-	-ma-	1d	.	.	4f]	.	.	2f/	.	.
.	.	.	.	.	.	.	.	.	4e\	-ma-	-ma-	.	.	.
!	!	!	!	!	!	!	!	!	!LO:TX:a:t=P:problem=kreska pseudotaktowa	!	!	!	!	!
.	.	.	.	.	.	.	.	.	2d\	-nes	-nes,	2.b-\	-ma-	-ma-
4AA/	.	.	4AA/	.	.	.	.	.	.	.	.	.	.	.
*	*	*	*	*	*	*	*	*	*	*ij	*ij	*	*	*
*	*	*	*	*	*	*xywh-pl-kk--i-130--0005:518,3127,4941,781	*	*	*	*	*	*	*	*
!	!	!	!	!	!	!LO:LB:g=original	!	!	!	!	!	!	!	!
2GG,</	-nes	-nes,	2GG,</	-nes	-nes,	2.en\	.	.	2.g\	per-	per-	.	.	.
.	.	.	.	.	.	.	.	.	.	.	.	4a\	.	.
*	*ij	*ij	*	*ij	*ij	*	*	*	*	*	*	*	*	*
!	!	!	!	!	!	!	!	!	!	!	!	!LO:TX:a:t=P:problem=kreska pseudotaktowa	!	!
2.C/	per-	per-	2.C/	per-	per-	.	.	.	.	.	.	2g\	-nes	-nes,
!	!	!	!	!	!	!LO:TX:a:t=P:problem=kreska pseudotaktowa	!	!	!LO:TX:a:t=P:problem=kreska pseudotaktowa	!	!	!	!	!
.	.	.	.	.	.	4d\	-ma-	-ma-	4f\	-ma-	-ma-	.	.	.
=53-	=53-	=53-	=53-	=53-	=53-	=53-	=53-	=53-	=53-	=53-	=53-	=53-	=53-	=53-
*	*	*	*	*	*	*	*	*	*	*	*	*	*ij	*ij
.	.	.	.	.	.	2c,<\	-nes	-nes,	2e,<\	-nes	-nes,	2.cc\	per-	per-
*	*	*	*	*	*	*	*	*	*	*Xij	*Xij	*	*	*
4BB-/	-ma-	-ma-	4BB-/	-ma-	-ma-	.	.	.	.	.	.	.	.	.
!LO:TX:a:t=P:problem=kreska pseudotaktowa	!	!	!LO:TX:a:t=P:problem=kreska pseudotaktowa	!	!	!	!	!	!	!	!	!	!	!
2AA/	-nes	-nes,	2AA,</	-nes	-nes,	2.f\	per-	per-	2.a\	per-	per-	.	.	.
*	*Xij	*Xij	*	*Xij	*Xij	*	*	*	*	*	*	*	*	*
!	!	!	!	!	!	!	!	!	!	!	!	!LO:TX:a:t=P:problem=kreska pseudotaktowa	!	!
.	.	.	.	.	.	.	.	.	.	.	.	4b-\	ma-	ma-
2.D/	per-	per-	2.D/	per-	per-	.	.	.	.	.	.	2a,<\	-nes	-nes,
*	*	*	*	*	*	*	*	*	*	*	*	*	*Xij	*Xij
.	.	.	.	.	.	4e\	.	.	4g\	-ma-	-ma-	.	.	.
!	!	!	!	!	!	!	!	!	!LO:TX:a:t=P:problem=kreska pseudotaktowa	!	!	!	!	!
.	.	.	.	.	.	1d\	-ma-	-ma-	2f,<\	-nes	-nes,	2.dd\	per-	per-
4C/	-ma-	-ma-	4C/	-ma-	-ma-	.	.	.	.	.	.	.	.	.
=54-	=54-	=54-	=54-	=54-	=54-	=54-	=54-	=54-	=54-	=54-	=54-	=54-	=54-	=54-
*	*	*	*	*	*	*	*	*	*	*ij	*ij	*	*	*
!	!	!	!LO:TX:a:t=P:problem=kreska pseudotaktowa	!	!	!	!	!	!	!	!	!	!	!
1BB-	-nes	-nes,	1BB-,<	-nes	-nes,	.	.	.	2.b-\	per-	per-	.	.	.
.	.	.	.	.	.	.	.	.	.	.	.	4dd\	-ma-	-ma-
!	!	!	!	!	!	!	!	!	!	!	!	!LO:TX:a:t=P:problem=kreska pseudotaktowa	!	!
.	.	.	.	.	.	1G	.	.	.	.	.	2dd\	-nes	-nes,
!	!	!	!	!	!	!	!	!	!LO:TX:a:t=P:problem=kreska pseudotaktowa	!	!	!	!	!
.	.	.	.	.	.	.	.	.	4a\	-ma-	-ma-	.	.	.
0C	vir-	Vir-	0C	Vir-	Vir-	.	.	.	2g\	-nes	-nes,	2cc\	Vir-	Vir-
*	*	*	*	*	*	*	*	*	*	*Xij	*Xij	*	*	*
!	!	!	!	!	!	!LO:TX:a:t=P:problem=kreska pseudotaktowa	!	!	!	!	!	!LO:TX:a:t=P:problem=kreska pseudotaktowa	!	!
.	.	.	.	.	.	2A/	-nes	-nes,	1f\	Vir-	Vir-	2a\	.	.
=55-	=55-	=55-	=55-	=55-	=55-	=55-	=55-	=55-	=55-	=55-	=55-	=55-	=55-	=55-
!	!	!	!	!	!	!	!	!	!	!	!	!LO:TX:a:t=P:problem=kreska pseudotaktowa	!	!
.	.	.	.	.	.	1c	Vir-	Vir-	.	.	.	1g	.	.
.	.	.	.	.	.	.	.	.	2e\	.	.	.	.	.
!	!	!	!	!	!	!LO:TX:a:t=P:problem=kreska pseudotaktowa	!	!	!	!	!	!	!	!
0.FF;	-go.	-go.	0.F;<	-go.	-go.	0.A;	-go.	-go.	0.f;	-go.	-go.	0.a;	-go.	-go.
=56-	=56-	=56-	=56-	=56-	=56-	=56-	=56-	=56-	=56-	=56-	=56-	=56-	=56-	=56-
!	!	!	!	!	!	!	!	!	!	!	!	!LO:MO:mod=!null:null	!	!
!	!	!	!	!	!	!	!	!	!	!	!	!LO:TX:b:t=Vertat	!	!
.	.	.	.	.	.	.	.	.	.	.	.	.	.	.
=57||	=57||	=57||	=57||	=57||	=57||	=57||	=57||	=57||	=57||	=57||	=57||	=57||	=57||	=57||
*M3/2	*	*	*M3/2	*	*	*M3/2	*	*	*M3/2	*	*	*M3/2	*	*
*	*	*	*	*	*	*	*	*	*	*	*	*xywh-pl-kk--i-130--0002:441,579,5004,715	*	*
!	!	!	!	!	!	!	!	!	!LO:LB:g=original	!	!	!LO:PB:g=original	!	!
*xywh-pl-kk--i-130--0010:430,947,4122,680	*	*	*	*	*	*	*	*	*xywh-pl-kk--i-130--0003:421,3225,5247,688	*	*	*	*	*
!	!	!	!	!	!	!LO:SIC:s=2B-\:v	!	!	!	!	!	!	!	!
2B-\	A-	A-	2B-\	A-	A-	2B-X\	A-	A-	2f\	A-	A-	2dd\	A-	A-
2B-\	-ve	-ve	2B-\	-ve	-ve	2B-\	-ve	-ve	2f\	-ve	-ve	2dd\	-ve	-ve
!LO:TX:a:t=P:problem=kreska pseudotaktowa	!	!	!LO:TX:a:t=P:problem=kreska pseudotaktowa	!	!	!LO:TX:a:t=P:problem=kreska pseudotaktowa	!	!	!LO:TX:a:t=P:problem=kreska pseudotaktowa	!	!	!LO:TX:a:t=P:problem=kreska pseudotaktowa	!	!
2B-\	Ma-	Ma-	2B-\	Ma-	Ma-	2B-\	Ma-	Ma-	2f\	Ma-	Ma-	2dd\	Ma-	Ma-
=58-	=58-	=58-	=58-	=58-	=58-	=58-	=58-	=58-	=58-	=58-	=58-	=58-	=58-	=58-
1B-	-ri-	-ri-	1B-	-ri-	-ri-	1c	-ri-	-ri-	1e	-ri-	-ri-	1cc	ri-	ri-
!LO:TX:a:t=P:problem=kreska pseudotaktowa	!	!	!LO:TX:a:t=P:problem=kreska pseudotaktowa	!	!	!LO:TX:a:t=P:problem=kreska pseudotaktowa	!	!	!LO:TX:a:t=P:problem=kreska pseudotaktowa	!	!	!LO:TX:a:t=P:problem=kreska pseudotaktowa	!	!
2A\	-a	-a,	2A\	-a	-a,	2c\	-a	-a,	2f\	-a	-a,	2cc\	-a	-a,
=59-	=59-	=59-	=59-	=59-	=59-	=59-	=59-	=59-	=59-	=59-	=59-	=59-	=59-	=59-
!	!	!	!	!	!	!	!	!	!	!	!	!LO:SIC:s=2.b-\:v	!	!
2.G\	Gra-	gra-	2.G\	gra-	gra-	2.en\	Gra-	gra-	2.g\	gra-	gra-	2.b-X\	gra-	gra-
4G\	-ti-	-ti-	4G\	-ti-	-ti-	4e\	-ti-	-ti-	4g\	-ti-	-ti-	4b-\	-ti-	-ti-
*	*	*	*custos:F	*	*	*	*	*	*	*	*	*	*	*
!LO:TX:a:t=P:problem=kreska pseudotaktowa	!	!	!LO:TX:a:t=P:problem=kreska pseudotaktowa	!	!	!LO:TX:a:t=P:problem=kreska pseudotaktowa	!	!	!LO:TX:a:t=P:problem=kreska pseudotaktowa	!	!	!LO:TX:a:t=P:problem=kreska pseudotaktowa	!	!
2G\	-a	-a	2G\	-a	-a	2e\	-â	-a	2g\	-a	-a	[<2b-\	-a	-a
=60-	=60-	=60-	=60-	=60-	=60-	=60-	=60-	=60-	=60-	=60-	=60-	=60-	=60-	=60-
*	*	*	*xywh-pl-kk--i-130--0007:397,3282,5208,746	*	*	*	*	*	*	*	*	*	*	*
!	!	!	!LO:LB:g=original	!	!	!	!	!	!	!	!	!	!	!
1F	ple-	ple-	1F	ple-	ple-	1f	ple-	ple-	1c	ple-	ple-	2b-],<	.	.
.	.	.	.	.	.	.	.	.	.	.	.	2an\	ple-	ple-
!LO:TX:a:t=P:problem=kreska pseudotaktowa	!	!	!LO:TX:a:t=P:problem=kreska pseudotaktowa	!	!	!LO:TX:a:t=P:problem=kreska pseudotaktowa	!	!	!LO:TX:a:t=P:problem=kreska pseudotaktowa	!	!	!LO:TX:a:t=P:problem=kreska pseudotaktowa	!	!
2F\	-na	-na,	2F\	-na	-na,	2F/	-na	-na,	2c/	-na	-na,	2a,<\	-na	-na,
=61-	=61-	=61-	=61-	=61-	=61-	=61-	=61-	=61-	=61-	=61-	=61-	=61-	=61-	=61-
2.En\	Do-	Do-	2.En\	Do-	Do-	2.G/	Do-	Do-	2.e\	Do-	Do-	2.cc#X\	Do-	Do-
4E\	-mi-	-mi-	4E\	-mi-	-mi-	4G/	-mi-	-mi-	4e\	-mi-	-mi-	4cc#\	-mi-	-mi-
!LO:TX:a:t=P:problem=kreska pseudotaktowa	!	!	!LO:TX:a:t=P:problem=kreska pseudotaktowa	!	!	!LO:TX:a:t=P:problem=kreska pseudotaktowa	!	!	!LO:TX:a:t=P:problem=kreska pseudotaktowa	!	!	!LO:TX:a:t=P:problem=kreska pseudotaktowa	!	!
2D\	-n(us)	-n(us)	2D\	-nus	-nus	2A\	-n(us)	-n(us)	2f\	-n(us)	-n(us)	[<2dd\	-n(us)	-n(us)
=62-	=62-	=62-	=62-	=62-	=62-	=62-	=62-	=62-	=62-	=62-	=62-	=62-	=62-	=62-
!	!	!	!	!	!	!LO:SIC:s=2B-\:v	!	!	!LO:TX:a:t=P:problem=kreska pseudotaktowa	!	!	!	!	!
2G\	Te-	te-	2G\	Te-	te-	2B-X\	Te-	te-	1.e	Te-	te-	2dd],<	.	.
*	*	*	*	*	*	*custos:A	*	*	*	*	*	*	*	*
!	!	!	!	!	!	!LO:TX:a:t=P:problem=kreska pseudotaktowa	!	!	!	!	!	!	!	!
2A\	.	.	2A\	.	.	1A	.	.	.	.	.	(2dd\	Te-	te-
!	!	!	!LO:TX:a:t=P:problem=kreska pseudotaktowa	!	!	!	!	!	!	!	!	!LO:TX:a:t=P:problem=kreska pseudotaktowa	!	!
2AA/	.	.	2AA/	.	.	.	.	.	.	.	.	2cc#X\)	.	.
=63-	=63-	=63-	=63-	=63-	=63-	=63-	=63-	=63-	=63-	=63-	=63-	=63-	=63-	=63-
!	!	!	!	!	!	!LO:MO:mod=!null:null	!	!	!	!	!	!	!	!
!	!	!	!	!	!	!LO:TX:a:t=T.	!	!	!	!	!	!	!	!
*	*	*	*	*	*	*xywh-pl-kk--i-130--0005:511,3639,4920,724	*	*	*	*	*	*	*	*
!	!	!	!	!	!	!LO:LB:g=original	!	!	!	!	!	!	!	!
2D\	-cum	-cum,	2D,<\	-cum.	-cum,	2A,<\	-cum	-cum,	2f#X,<\	-cum	-cum,	2dd,<\	-cum	-cum,
2r	.	.	2r	.	.	2d\	Be-	be-	2a\	be-	be-	2ff\	be-	be-
!LO:TX:a:t=P:problem=kreska pseudotaktowa	!	!	!LO:TX:a:t=P:problem=kreska pseudotaktowa	!	!	!LO:TX:a:t=P:problem=kreska pseudotaktowa	!	!	!LO:TX:a:t=P:problem=kreska pseudotaktowa	!	!	!LO:TX:a:t=P:problem=kreska pseudotaktowa	!	!
2r	.	.	2r	.	.	2d\	-ne-	-ne-	2fn\	-ne-	-ne-	2dd\	-ne-	-ne-
=64-	=64-	=64-	=64-	=64-	=64-	=64-	=64-	=64-	=64-	=64-	=64-	=64-	=64-	=64-
0.r	.	.	0.r	.	.	2.A\	-di-	-di-	2.e\	-di-	-di-	2.cc#X\	-di-	-di-
.	.	.	.	.	.	4A\	-cta	-cta	4e\	-cta	-cta	4cc#\	-cta	-cta
!	!	!	!	!	!	!LO:TX:a:t=P:problem=kreska pseudotaktowa	!	!	!LO:TX:a:t=P:problem=kreska pseudotaktowa	!	!	!LO:TX:a:t=P:problem=kreska pseudotaktowa	!	!
.	.	.	.	.	.	2d\	Tu	tu	2f\	Tu	tu	2ff\	Tu	tu
=65-	=65-	=65-	=65-	=65-	=65-	=65-	=65-	=65-	=65-	=65-	=65-	=65-	=65-	=65-
*	*	*	*	*	*	*	*	*	*	*	*	*xywh-pl-kk--i-130--0002:450,1125,4855,673	*	*
!	!	!	!	!	!	!	!	!	!	!	!	!LO:LB:g=original	!	!
.	.	.	.	.	.	2c\	in	in	2g\	in	in	2een\	in	in
.	.	.	.	.	.	2A\	mu-	mu-	2f\	mu-	mu-	2ccn\	mu-	mu-
!	!	!	!	!	!	!LO:TX:a:t=P:problem=kreska pseudotaktowa	!	!	!LO:TX:a:t=P:problem=kreska pseudotaktowa	!	!	!LO:TX:a:t=P:problem=kreska pseudotaktowa	!	!
.	.	.	.	.	.	2F/	-li-	-li-	2f\	-li-	-li-	2a\	-li-	-li-
=66-	=66-	=66-	=66-	=66-	=66-	=66-	=66-	=66-	=66-	=66-	=66-	=66-	=66-	=66-
!LO:TX:a:t=P:problem=kreska pseudotaktowa	!	!	!LO:TX:a:t=P:problem=kreska pseudotaktowa	!	!	!	!	!	!	!	!	!	!	!
1.r	.	.	1.r	.	.	(2B-\	-e-	-e-	1f	-e-	-e-	1g	-e-	-e-
.	.	.	.	.	.	2c\)	.	.	.	.	.	.	.	.
!	!	!	!	!	!	!LO:TX:a:t=P:problem=kreska pseudotaktowa	!	!	!LO:TX:a:t=P:problem=kreska pseudotaktowa	!	!	!LO:TX:a:t=P:problem=kreska pseudotaktowa	!	!
.	.	.	.	.	.	2C/	-ri-	-ri-	2e\	-ri-	-ri-	2g/	-ri-	-ri-
=67-	=67-	=67-	=67-	=67-	=67-	=67-	=67-	=67-	=67-	=67-	=67-	=67-	=67-	=67-
2r	.	.	2r	.	.	2F,</	-bus.	-bus,	2f,<\	-bus	-bus,	2a,<\	-bus.	-bus,
*	*	*	*	*	*	*	*	*	*xywh-pl-kk--i-130--0003:428,3566,5176,830	*	*	*	*	*
!	!	!	!	!	!	!	!	!	!LO:LB:g=original	!	!	!	!	!
2F\	be-	be-	2F\	be-	be-	2A\	Be-	be-	2f\	be-	be-	2cc\	Be-	be-
!LO:TX:a:t=P:problem=kreska pseudotaktowa	!	!	!LO:TX:a:t=P:problem=kreska pseudotaktowa	!	!	!LO:TX:a:t=P:problem=kreska pseudotaktowa	!	!	!LO:TX:a:t=P:problem=kreska pseudotaktowa	!	!	!LO:TX:a:t=P:problem=kreska pseudotaktowa	!	!
2F\	-ne-	-ne-	2F\	-ne-	-ne-	2A\	-ne-	-ne-	2f\	-ne-	-ne-	2cc\	-ne-	-ne-
=68-	=68-	=68-	=68-	=68-	=68-	=68-	=68-	=68-	=68-	=68-	=68-	=68-	=68-	=68-
2.F\	-di-	-di-	2.F\	-di-	-di-	2.Bn\	-di-	-di-	2.g\	-di-	-di-	2.dd\	-di-	-di-
4F\	-cta	-cta	4F\	-cta	-cta	4B\	-cta	-cta	4g\	-cta	-cta	4dd\	-cta	-cta
!LO:TX:a:t=P:problem=kreska pseudotaktowa	!	!	!LO:TX:a:t=P:problem=kreska pseudotaktowa	!	!	!LO:TX:a:t=P:problem=kreska pseudotaktowa	!	!	!LO:TX:a:t=P:problem=kreska pseudotaktowa	!	!	!LO:TX:a:t=P:problem=kreska pseudotaktowa	!	!
2E\	Tu	tu	2E\	Tu	tu	2c\	Tu	tu	2g\	Tu	tu	2een\	.	tu
=69-	=69-	=69-	=69-	=69-	=69-	=69-	=69-	=69-	=69-	=69-	=69-	=69-	=69-	=69-
*xywh-pl-kk--i-130--0010:411,1469,4152,613	*	*	*	*	*	*	*	*	*	*	*	*	*	*
!LO:LB:g=original	!	!	!	!	!	!	!	!	!	!	!	!	!	!
2D\	in	in	2D\	in	in	2Bn\	in	in	2f\	in	in	2ff\	in	in
2D\	mu-	mu-	2D\	mu-	mu-	2B\	mu-	mu-	2d\	mu-	mu-	2ff\	mu-	mu-
!LO:TX:a:t=P:problem=kreska pseudotaktowa	!	!	!LO:TX:a:t=P:problem=kreska pseudotaktowa	!	!	!LO:TX:a:t=P:problem=kreska pseudotaktowa	!	!	!LO:TX:a:t=P:problem=kreska pseudotaktowa	!	!	!LO:TX:a:t=P:problem=kreska pseudotaktowa	!	!
2C/	-li-	-li-	2C/	-li-	-li-	2c\	-li-	-li-	2e\	-li-	-li-	2ee\	-li-	-li-
=70-	=70-	=70-	=70-	=70-	=70-	=70-	=70-	=70-	=70-	=70-	=70-	=70-	=70-	=70-
2F\	-e-	-e-	2F\	-e-	-e-	1c	-e-	-e-	2a\	-e-	-e-	1dd	-e-	-e-
2G\	.	.	2G\	.	.	.	.	.	2.g\	.	.	.	.	.
*	*	*	*	*	*	*custos:c	*	*	*	*	*	*	*	*
!LO:TX:a:t=P:problem=kreska pseudotaktowa	!	!	!LO:TX:a:t=P:problem=kreska pseudotaktowa	!	!	!LO:TX:a:t=P:problem=kreska pseudotaktowa	!	!	!	!	!	!LO:TX:a:t=P:problem=kreska pseudotaktowa	!	!
2GG/	-ri-	-ri-	2GG/	-ri-	-ri-	2Bn\	-ri-	-ri-	.	.	.	2dd\	-ri-	-ri-
!	!	!	!	!	!	!	!	!	!LO:TX:a:t=P:problem=kreska pseudotaktowa	!	!	!	!	!
.	.	.	.	.	.	.	.	.	4g\	-ri-	-ri-	.	.	.
=71-	=71-	=71-	=71-	=71-	=71-	=71-	=71-	=71-	=71-	=71-	=71-	=71-	=71-	=71-
*	*	*	*	*	*	*xywh-pl-kk--i-130--0006:463,445,4972,782	*	*	*	*	*	*	*	*
!	!	!	!	!	!	!LO:PB:g=original	!	!	!	!	!	!	!	!
2C,</	-bus	-bus,	2C,</	-bus	-bus,	2c,<\	-bus	-bus,	2g,<\	-bus	-bus,	2cc,<\	-bus,	-bus,
2BBn/	in	in	2BBn/	in	in	2d\	in	in	2d\	in	in	2g#X/	in	in
!LO:TX:a:t=P:problem=kreska pseudotaktowa	!	!	!LO:TX:a:t=P:problem=kreska pseudotaktowa	!	!	!LO:TX:a:t=P:problem=kreska pseudotaktowa	!	!	!LO:TX:a:t=P:problem=kreska pseudotaktowa	!	!	!LO:TX:a:t=P:problem=kreska pseudotaktowa	!	!
2AA/	mu-	mu-	2AA/	mu-	mu-	2c\	mu-	mu-	2e\	mu-	mu-	2a\	Mu-	mu-
=72-	=72-	=72-	=72-	=72-	=72-	=72-	=72-	=72-	=72-	=72-	=72-	=72-	=72-	=72-
*	*	*	*xywh-pl-kk--i-130--0007:440,3705,5201,803	*	*	*	*	*	*	*	*	*	*	*
!	!	!	!LO:LB:g=original	!	!	!	!	!	!	!	!	!	!	!
2D\	-li-	-li-	2D\	-li-	-li-	2Bn\	-li-	-li-	2f\	-li-	-li-	2a\	-li-	-li-
2.E\	-e-	-e-	2.E\	-e-	-e-	2.B\	-e-	-e-	2.e\	-e-	-e-	2.a\	-e-	-e-
*	*	*	*	*	*	*	*	*	*	*	*	*custos:a	*	*
!LO:TX:a:t=P:problem=kreska pseudotaktowa	!	!	!LO:TX:a:t=P:problem=kreska pseudotaktowa	!	!	!LO:TX:a:t=P:problem=kreska pseudotaktowa	!	!	!LO:TX:a:t=P:problem=kreska pseudotaktowa	!	!	!LO:TX:a:t=P:problem=kreska pseudotaktowa	!	!
4E\	-ri-	-ri-	4E\	-ri-	-ri-	4B\	-ri-	-ri-	4e\	-ri-	-ri-	4g#X/	-ri-	-ri-
=73-	=73-	=73-	=73-	=73-	=73-	=73-	=73-	=73-	=73-	=73-	=73-	=73-	=73-	=73-
*	*	*	*	*	*	*	*	*	*	*	*	*xywh-pl-kk--i-130--0002:436,1678,4954,637	*	*
!	!	!	!	!	!	!	!	!	!	!	!	!LO:LB:g=original	!	!
2AA,</	-bus	-bus,	2AA,</	-bus	-bus,	2c,<\	-bus,	-bus,	2e,<\	-bus	-bus,	2a,<\	-bus,	-bus,
2A\	in	in	2A\	in	in	2A/	in	in	2e\	in	in	2cc#X\	in	in
!LO:TX:a:t=P:problem=kreska pseudotaktowa	!	!	!LO:TX:a:t=P:problem=kreska pseudotaktowa	!	!	!LO:TX:a:t=P:problem=kreska pseudotaktowa	!	!	!LO:TX:a:t=P:problem=kreska pseudotaktowa	!	!	!LO:TX:a:t=P:problem=kreska pseudotaktowa	!	!
2D\	mu-	mu-	2D/	mu-	mu-	2A/	mu-	mu-	2f\	mu-	mu-	2dd\	mu-	mu-
=74-	=74-	=74-	=74-	=74-	=74-	=74-	=74-	=74-	=74-	=74-	=74-	=74-	=74-	=74-
!	!	!	!	!	!	!LO:SIC:s=2B-\:v	!	!	!	!	!	!	!	!
2G\	-li-	-li-	2G\	-li-	-li-	2B-X\	-li-	-li-	2e\	-li-	-li-	2dd\	-li-	-li-
2A\	-e-	-e-	2A\	-e-	-e-	2.A\	-e-	-e-	2.e\	-e-	-e-	2.dd\	-e-	-e-
2AA/	-ri-	-ri-	2AA/	-ri-	-ri-	.	.	.	.	.	.	.	.	.
!	!	!	!	!	!	!	!	!	!LO:TX:a:t=P:problem=kreska pseudotaktowa	!	!	!	!	!
.	.	.	.	.	.	4A\	-ri-	-ri-	4e\	-ri-	-ri-	4cc#X\	-ri-	-ri-
=75-	=75-	=75-	=75-	=75-	=75-	=75-	=75-	=75-	=75-	=75-	=75-	=75-	=75-	=75-
*M2/1	*	*	*M2/1	*	*	*M2/1	*	*	*M2/1	*	*	*M2/1	*	*
*met(C|)	*	*	*met(C|)	*	*	*met(C|)	*	*	*met(C|)	*	*	*met(C|)	*	*
2D,<\	-bus.	-bus.	2D,</	-bus.	-bus.	2A\	-bus.	-bus.	2f#X\	-bus.	-bus.	2dd\	-bus.	-bus.
!	!	!	!	!	!	!LO:TX:a:t=P:problem=kreska pseudotaktowa	!	!	!LO:TX:a:t=P:problem=kreska pseudotaktowa	!	!	!LO:TX:a:t=P:problem=kreska pseudotaktowa	!	!
1D	Ge-	Ge-	1D	Ge-	Ge-	2r	.	.	2r	.	.	2r	.	.
!	!	!	!	!	!	!LO:TX:a:t=P:problem=kreska pseudotaktowa	!	!	!	!	!	!	!	!
.	.	.	.	.	.	0r	.	.	00r	.	.	2r	.	.
!LO:TX:a:t=P:problem=kreska pseudotaktowa	!	!	!LO:TX:a:t=P:problem=kreska pseudotaktowa	!	!	!	!	!	!	!	!	!	!	!
2C#X/	-nu-	-nu-	2C#X/	-nu-	-nu-	.	.	.	.	.	.	1a\	Ge-	Ge-
=76-	=76-	=76-	=76-	=76-	=76-	=76-	=76-	=76-	=76-	=76-	=76-	=76-	=76-	=76-
2D\	-i-	-i-	2D\	-i-	-i-	.	.	.	.	.	.	.	.	.
!	!	!	!LO:TX:a:t=P:problem=kreska pseudotaktowa	!	!	!	!	!	!	!	!	!LO:TX:a:t=P:problem=kreska pseudotaktowa	!	!
2AA,</	-ſti	-sti,	2AA/	-sti	-sti,	.	.	.	.	.	.	2a\	-nu-	-nu-
2F\	qui	qui	2F\	qui	qui	2r	.	.	.	.	.	2a\	-i-	-i-
!LO:TX:a:t=P:problem=kreska pseudotaktowa	!	!	!	!	!	!	!	!	!	!	!	!LO:TX:a:t=P:problem=kreska pseudotaktowa	!	!
2D\	Te	te	2D\	Te	te	1A\	Ge-	Ge-	.	.	.	2dd,<\	-sti	-sti,
=77-	=77-	=77-	=77-	=77-	=77-	=77-	=77-	=77-	=77-	=77-	=77-	=77-	=77-	=77-
*xywh-pl-kk--i-130--0010:423,1825,4079,613	*	*	*	*	*	*	*	*	*	*	*	*	*	*
!LO:LB:g=original	!	!	!LO:TX:a:t=P:problem=kreska pseudotaktowa	!	!	!	!	!	!	!	!	!	!	!
1E	fe-	fe-	1E	fe-	fe-	.	.	.	.	.	.	2bn\	Qui	qui
!	!	!	!	!	!	!LO:TX:a:t=P:problem=kreska pseudotaktowa	!	!	!	!	!	!LO:TX:a:t=P:problem=kreska pseudotaktowa	!	!
.	.	.	.	.	.	2G#X/	-nu-	-nu-	.	.	.	2b\	Te	te
!	!	!	!	!	!	!	!	!	!LO:TX:a:t=P:problem=kreska pseudotaktowa	!	!	!	!	!
2AA,</	-cit	-cit,	2AA,</	-cit,	-cit,	2A/	-i-	-i-	0r	.	.	(2.ccny\	fe-	fe-
!	!	!	!	!	!	!LO:TX:a:t=P:problem=kreska pseudotaktowa	!	!	!	!	!	!	!	!
1A\	Qui	qui	1A\	qui	qui	2E,</	-sti	-sti,	.	.	.	.	.	.
.	.	.	.	.	.	.	.	.	.	.	.	4b\)	.	.
=78-	=78-	=78-	=78-	=78-	=78-	=78-	=78-	=78-	=78-	=78-	=78-	=78-	=78-	=78-
*	*	*	*	*	*	*	*	*	*custos:d	*	*	*	*	*
!	!	!	!	!	!	!	!	!	!LO:MO:mod=!null:null	!	!	!	!	!
!	!	!	!	!	!	!	!	!	!LO:TX:b:t=Vertat	!	!	!	!	!
.	.	.	.	.	.	2c\	qui	qui	.	.	.	2a\	.	.
!	!	!	!LO:TX:a:t=P:problem=kreska pseudotaktowa	!	!	!	!	!	!	!	!	!LO:TX:a:t=P:problem=kreska pseudotaktowa	!	!
2F\	Te	te	2F\	Te	te	2A\	Te	te	.	.	.	2a\	-cit,	-cit,
*lig	*	*	*lig	*	*	*	*	*	*	*	*	*	*	*
*	*	*	*	*	*	*	*	*	*xywh-pl-kk--i-130--0004:347,358,5190,759	*	*	*	*	*
!	!	!	!	!	!	!	!	!	!LO:PB:g=original	!	!	!	!	!
1G	fe-	fe-	1G	fe-	fe-	1Bn	fe-	fe-	2r	.	.	0r	.	.
.	.	.	.	.	.	.	.	.	1d\	Ge-	Ge-	.	.	.
=79-	=79-	=79-	=79-	=79-	=79-	=79-	=79-	=79-	=79-	=79-	=79-	=79-	=79-	=79-
!	!	!	!	!	!	!LO:TX:a:t=P:problem=kreska pseudotaktowa	!	!	!	!	!	!	!	!
1A	.	.	1A	.	.	0A	-cit	-cit,	.	.	.	.	.	.
!	!	!	!	!	!	!	!	!	!LO:TX:a:t=P:problem=kreska pseudotaktowa	!	!	!	!	!
.	.	.	.	.	.	.	.	.	2c#X/	-nu-	-nu-	.	.	.
*Xlig	*	*	*Xlig	*	*	*	*	*	*	*	*	*	*	*
!LO:TX:a:t=P:problem=kreska pseudotaktowa	!	!	!LO:TX:a:t=P:problem=kreska pseudotaktowa	!	!	!	!	!	!	!	!	!LO:TX:a:t=P:problem=kreska pseudotaktowa	!	!
0D	-cit.	-cit,	0D	-cit.	-cit,	.	.	.	2d\	-i-	-i-	1r	.	.
!	!	!	!	!	!	!	!	!	!LO:TX:a:t=P:problem=kreska pseudotaktowa	!	!	!	!	!
.	.	.	.	.	.	.	.	.	2A/	-ſti	-sti,	.	.	.
=80-	=80-	=80-	=80-	=80-	=80-	=80-	=80-	=80-	=80-	=80-	=80-	=80-	=80-	=80-
*	*	*	*	*	*	*xywh-pl-kk--i-130--0006:491,997,5015,660	*	*	*	*	*	*	*	*
!	!	!	!	!	!	!LO:LB:g=original	!	!	!	!	!	!	!	!
.	.	.	.	.	.	00r	.	.	2fny\	qui	qui	2r	.	.
!	!	!	!	!	!	!	!	!	!LO:TX:a:t=P:problem=kreska pseudotaktowa	!	!	!	!	!
.	.	.	.	.	.	.	.	.	2d\	Te	te	1a	Ge-	ge-
!	!	!	!LO:TX:a:t=P:problem=kreska pseudotaktowa	!	!	!	!	!	!	!	!	!	!	!
0r	.	.	0r	.	.	.	.	.	1e	fe-	fe-	.	.	.
!	!	!	!	!	!	!	!	!	!	!	!	!LO:TX:a:t=P:problem=kreska pseudotaktowa	!	!
.	.	.	.	.	.	.	.	.	.	.	.	2g#X\	-nu-	-nu-
=81-	=81-	=81-	=81-	=81-	=81-	=81-	=81-	=81-	=81-	=81-	=81-	=81-	=81-	=81-
.	.	.	.	.	.	.	.	.	2A,</	-cit,	-cit,	2a\	-i-	-i-
!	!	!	!	!	!	!	!	!	!	!	!	!LO:TX:a:t=P:problem=kreska pseudotaktowa	!	!
.	.	.	.	.	.	.	.	.	1cny	qui	qui	2e/	-sti	-sti,
*	*	*	*xywh-pl-kk--i-130--0008:399,326,5258,827	*	*	*	*	*	*	*	*	*	*	*
!	!	!	!LO:PB:g=original	!	!	!	!	!	!	!	!	!	!	!
2r	.	.	2r	.	.	.	.	.	.	.	.	2cc\	Qui	qui
!LO:TX:a:t=P:problem=kreska pseudotaktowa	!	!	!LO:TX:a:t=P:problem=kreska pseudotaktowa	!	!	!	!	!	!LO:TX:a:t=P:problem=kreska pseudotaktowa	!	!	!LO:TX:a:t=P:problem=kreska pseudotaktowa	!	!
2A\	et	et	2A\	et	et	.	.	.	2e\	Te	te	2a\	Te	te
=82-	=82-	=82-	=82-	=82-	=82-	=82-	=82-	=82-	=82-	=82-	=82-	=82-	=82-	=82-
*	*	*	*	*	*	*	*	*	*	*	*	*xywh-pl-kk--i-130--0002:443,2139,4968,694	*	*
!	!	!	!	!	!	!	!	!	!	!	!	!LO:LB:g=original	!	!
2A\	in	in	2A\	in	in	2r	.	.	2d\	fe-	fe-	1bn	fe-	fe-
!LO:TX:a:t=P:problem=kreska pseudotaktowa	!	!	!LO:TX:a:t=P:problem=kreska pseudotaktowa	!	!	!LO:TX:a:t=P:problem=kreska pseudotaktowa	!	!	!LO:TX:a:t=P:problem=kreska pseudotaktowa	!	!	!	!	!
2G#X\	ae-	ae-	2G#X\	ae-	ae-	2e\	et	et	2d,<\	-cit	-cit,	.	.	.
2A\	ter-	ter-	2A\	-ter-	-ter-	2e\	in	in	(2c/	fe-	fe-	2e,</	-cit	-cit,
!	!	!	!	!	!	!LO:TX:a:t=P:problem=kreska pseudotaktowa	!	!	!LO:TX:a:t=P:problem=kreska pseudotaktowa	!	!	!LO:TX:a:t=P:problem=kreska pseudotaktowa	!	!
2E\	.	.	2E\	.	.	2e\	ae-	ae-	2Bn/)	.	.	2ee\	et	et
=83-	=83-	=83-	=83-	=83-	=83-	=83-	=83-	=83-	=83-	=83-	=83-	=83-	=83-	=83-
*lig	*	*	*lig	*	*	*	*	*	*	*	*	*	*	*
1F	.	.	1F	.	.	(2c\	-ter-	-ter-	2A,</	-cit	-cit,	2ee\	in	in
!	!	!	!	!	!	!	!	!	!LO:TX:a:t=P:problem=kreska pseudotaktowa	!	!	!LO:TX:a:t=P:problem=kreska pseudotaktowa	!	!
.	.	.	.	.	.	2d\)	.	.	2a\	et	et	2dd\	ae-	ae-
1E	.	.	1E	.	.	1Bn	.	.	2a\	in	in	2ee\	-ter-	-ter-
!	!	!	!	!	!	!	!	!	!LO:TX:a:t=P:problem=kreska pseudotaktowa	!	!	!	!	!
.	.	.	.	.	.	.	.	.	2g#X\	ae-	ae-	2bn\	.	.
*Xlig	*	*	*Xlig	*	*	*	*	*	*	*	*	*	*	*
=84-	=84-	=84-	=84-	=84-	=84-	=84-	=84-	=84-	=84-	=84-	=84-	=84-	=84-	=84-
!LO:TX:a:t=P:problem=kreska pseudotaktowa	!	!	!LO:TX:a:t=P:problem=kreska pseudotaktowa	!	!	!	!	!	!	!	!	!LO:TX:a:t=P:problem=kreska pseudotaktowa	!	!
1AA,<	-num	-num	1AA,<	-num	-num	2A,<\	-num	-num	(1a	-ter-	-ter-	1cc	.	.
!	!	!	!	!	!	!LO:TX:a:t=P:problem=kreska pseudotaktowa	!	!	!	!	!	!	!	!
.	.	.	.	.	.	[<2c\	per-	per-	.	.	.	.	.	.
*lig	*	*	*lig	*	*	*	*	*	*	*	*	*	*	*
!	!	!	!	!	!	!LO:MO:mod=!null:null	!	!	!	!	!	!	!	!
!	!	!	!	!	!	!LO:N:xstem:cue	!	!	!LO:TX:a:t=P:problem=kreska pseudotaktowa	!	!	!	!	!
1Cny	per-	per-	1Cny	per-	per-	4c]	.	.	1e)	.	.	2gny,<\	-num	-num,
.	.	.	.	.	.	4Bn\	-ma-	-ma-	.	.	.	.	.	.
!	!	!	!	!	!	!LO:TX:a:t=P:problem=kreska pseudotaktowa	!	!	!	!	!	!	!	!
.	.	.	.	.	.	2A\	-nes	-nes,	.	.	.	4cc\	in	in
.	.	.	.	.	.	.	.	.	.	.	.	4b-y\	ae-	ae-
=85-	=85-	=85-	=85-	=85-	=85-	=85-	=85-	=85-	=85-	=85-	=85-	=85-	=85-	=85-
1D	.	.	1D	.	.	1d	Vir-	Vir-	1f	.	.	1a	-ter-	-ter-
!	!	!	!	!	!	!	!	!	!LO:TX:a:t=P:problem=kreska pseudotaktowa	!	!	!	!	!
1E	.	.	1E	.	.	2Bn,<\	-go,	-go,	1e,<	-num	-num	2g,<\	-num	-num
!	!	!	!	!	!	!LO:TX:a:t=P:problem=kreska pseudotaktowa	!	!	!	!	!	!LO:TX:a:t=P:problem=kreska pseudotaktowa	!	!
.	.	.	.	.	.	[<2c\	per-	per-	.	.	.	2g\	per-	per-
*Xlig	*	*	*Xlig	*	*	*	*	*	*	*	*	*	*	*
=86-	=86-	=86-	=86-	=86-	=86-	=86-	=86-	=86-	=86-	=86-	=86-	=86-	=86-	=86-
!	!	!	!	!	!	!LO:MO:mod=!null:null	!	!	!	!	!	!	!	!
*	*	*	*	*	*	*	*	*	*xywh-pl-kk--i-130--0004:355,798,5233,773	*	*	*	*	*
!	!	!	!	!	!	!LO:N:xstem:cue	!	!	!LO:LB:g=original	!	!	!	!	!
2.F\	.	.	2.F\	-ma-	-ma-	4c]	.	.	2.c\	per-	per-	2.a\	.	.
.	.	.	.	.	.	4Bn\	-ma-	-ma-	.	.	.	.	.	.
!	!	!	!	!	!	!LO:TX:a:t=P:problem=kreska pseudotaktowa	!	!	!	!	!	!	!	!
.	.	.	.	.	.	2A,</	-nes	-nes,	.	.	.	.	.	.
!LO:TX:a:t=P:problem=kreska pseudotaktowa	!	!	!LO:TX:a:t=P:problem=kreska pseudotaktowa	!	!	!	!	!	!LO:TX:a:t=P:problem=kreska pseudotaktowa	!	!	!LO:TX:a:t=P:problem=kreska pseudotaktowa	!	!
4E\	-ma-	-ma-	4E\	.	.	.	.	.	4c\	-ma-	-ma-	4a\	-ma-	-ma-
*	*	*	*	*	*	*	*ij	*ij	*	*	*	*	*	*
2D,<\	-nes	-nes,	2D,</	-nes	-nes,	2.d\	per-	per-	2d,<\	-nes	-nes,	2a,<\	-nes	-nes,
*	*ij	*ij	*	*ij	*ij	*	*	*	*	*ij	*ij	*	*	*
!	!	!	!	!	!	!	!	!	!LO:TX:a:t=P:problem=kreska pseudotaktowa	!	!	!	!	!
2.Gny\	per-	per-	2.Gny\	per-	per-	.	.	.	[<2d\	per-	per-	1bn\	per-	per-
!	!	!	!	!	!	!LO:TX:a:t=P:problem=kreska pseudotaktowa	!	!	!	!	!	!	!	!
.	.	.	.	.	.	4c\	-ma-	-ma-	.	.	.	.	.	.
=87-	=87-	=87-	=87-	=87-	=87-	=87-	=87-	=87-	=87-	=87-	=87-	=87-	=87-	=87-
!	!	!	!	!	!	!	!	!	!LO:MO:mod=!null:null	!	!	!	!	!
!	!	!	!	!	!	!	!	!	!LO:N:xstem:cue	!	!	!	!	!
.	.	.	.	.	.	2Bn,<\	-nes	-nes,	4d]	.	.	.	.	.
*	*	*	*	*	*	*	*Xij	*Xij	*	*	*	*	*	*
4F\	-ma-	-ma-	4F\	-ma-	-ma-	.	.	.	4d\	-ma-	-ma-	.	.	.
!LO:TX:a:t=P:problem=kreska pseudotaktowa	!	!	!LO:TX:a:t=P:problem=kreska pseudotaktowa	!	!	!	!	!	!LO:TX:a:t=P:problem=kreska pseudotaktowa	!	!	!LO:TX:a:t=P:problem=kreska pseudotaktowa	!	!
2E\	-nes	-nes,	2E,<\	-nes	-nes,	2.e\	per-	per-	2e,<\	-nes	-nes,	[<2cc\	.	.
*	*Xij	*Xij	*	*Xij	*Xij	*	*	*	*	*Xij	*Xij	*	*	*
!	!	!	!	!	!	!	!	!	!	!	!	!LO:MO:mod=!null:null	!	!
!	!	!	!	!	!	!	!	!	!	!	!	!LO:N:xstem:cue	!	!
2.A\	per-	per-	2.A\	per-	per-	.	.	.	2.e\	per-	per-	4cc]	.	.
.	.	.	.	.	.	4d\	-ma-	-ma-	.	.	.	4cc\	-ma-	-ma-
*	*	*	*	*	*	*custos:A	*	*	*	*	*	*	*	*
!	!	!	!	!	!	!LO:TX:a:t=P:problem=kreska pseudotaktowa	!	!	!	!	!	!	!	!
!	!	!	!	!	!	!	!	!	!	!	!	!LO:TX:a:t=P:problem=kreska pseudotaktowa	!	!
.	.	.	.	.	.	2c\	-nes	-nes,	.	.	.	2cc\	-nes	-nes,
!	!	!	!	!	!	!	!	!	!LO:TX:a:t=P:problem=kreska pseudotaktowa	!	!	!	!	!
4G\	-ma-	-ma-	4G\	ma-	ma-	.	.	.	4e\	-ma-	-ma-	.	.	.
=88-	=88-	=88-	=88-	=88-	=88-	=88-	=88-	=88-	=88-	=88-	=88-	=88-	=88-	=88-
*	*	*	*	*	*	*lig	*	*	*	*	*	*	*	*
!LO:TX:a:t=P:problem=kreska pseudotaktowa	!	!	!LO:TX:a:t=P:problem=kreska pseudotaktowa	!	!	!	!	!	!	!	!	!	!	!
*	*	*	*	*	*	*xywh-pl-kk--i-130--0006:520,1420,4936,767	*	*	*	*	*	*	*	*
!	!	!	!	!	!	!LO:LB:g=original	!	!	!	!	!	!	!	!
1F	-nes	-nes,	1F,<	-nes	-nes,	1A	Vir-	Vir-	2f,<\	-nes	-nes,	2r	.	.
!	!	!	!	!	!	!	!	!	!LO:TX:a:t=P:problem=kreska pseudotaktowa	!	!	!LO:TX:a:t=P:problem=kreska pseudotaktowa	!	!
.	.	.	.	.	.	.	.	.	2d\	per-	per-	2cc\	et	et
*xywh-pl-kk--i-130--0010:368,2285,4238,711	*	*	*	*	*	*	*	*	*	*	*	*	*	*
!LO:LB:g=original	!	!	!	!	!	!	!	!	!	!	!	!	!	!
1G	Vir-	Vir-	1G	Vir-	Vir-	1d	.	.	2.g\	.	.	2cc\	in	in
!	!	!	!	!	!	!	!	!	!LO:TX:a:t=P:problem=kreska pseudotaktowa	!	!	!LO:TX:a:t=P:problem=kreska pseudotaktowa	!	!
.	.	.	.	.	.	.	.	.	.	.	.	2bn\	ae-	ae-
.	.	.	.	.	.	.	.	.	4f\	.	.	.	.	.
*	*	*	*	*	*	*Xlig	*	*	*	*	*	*	*	*
=89-	=89-	=89-	=89-	=89-	=89-	=89-	=89-	=89-	=89-	=89-	=89-	=89-	=89-	=89-
!	!	!	!	!	!	!LO:TX:a:t=P:problem=kreska pseudotaktowa	!	!	!	!	!	!	!	!
2C,</	-go	-go,	2C,</	-go	-go,	1c,<	-go	-go,	4e\	-ma-	-ma-	2cc\	-ter-	-ter-
.	.	.	.	.	.	.	.	.	4d\	.	.	.	.	.
!LO:TX:a:t=P:problem=kreska pseudotaktowa	!	!	!LO:TX:a:t=P:problem=kreska pseudotaktowa	!	!	!	!	!	!LO:TX:a:t=P:problem=kreska pseudotaktowa	!	!	!LO:TX:a:t=P:problem=kreska pseudotaktowa	!	!
2F\	et	et	2F\	et	et	.	.	.	2c,<\	-nes	-nes,	2a\	.	.
*	*	*	*	*	*	*	*	*	*	*	*	*xywh-pl-kk--i-130--0002:464,2649,4862,694	*	*
!	!	!	!	!	!	!	!	!	!	!	!	!LO:LB:g=original	!	!
2F\	in	in	2F\	in	in	2r	.	.	(2d\	Vir-	Vir-	1g	.	.
*	*	*	*custos:F	*	*	*	*	*	*	*	*	*	*	*
!	!	!	!LO:TX:a:t=P:problem=kreska pseudotaktowa	!	!	!	!	!	!	!	!	!	!	!
!	!	!	!	!	!	!LO:TX:a:t=P:problem=kreska pseudotaktowa	!	!	!	!	!	!	!	!
2E\	ae-	ae-	2E\	ae-	ae-	2c\	et	et	2e\)	.	.	.	.	.
=90-	=90-	=90-	=90-	=90-	=90-	=90-	=90-	=90-	=90-	=90-	=90-	=90-	=90-	=90-
*	*	*	*xywh-pl-kk--i-130--0008:457,849,5149,748	*	*	*	*	*	*	*	*	*	*	*
!	!	!	!LO:LB:g=original	!	!	!	!	!	!LO:TX:a:t=P:problem=kreska pseudotaktowa	!	!	!	!	!
2F\	-ter-	-ter-	2F\	-ter-	-ter-	2c\	in	in	1c	-go	-go,	2f,</	-num	-num
!	!	!	!	!	!	!LO:TX:a:t=P:problem=kreska pseudotaktowa	!	!	!	!	!	!	!	!
2C/	.	.	2C/	.	.	2c\	ae-	ae-	.	.	.	2.cc\	per-	per-
!LO:TX:a:t=P:problem=kreska pseudotaktowa	!	!	!LO:TX:a:t=P:problem=kreska pseudotaktowa	!	!	!	!	!	!	!	!	!	!	!
1D	.	.	1D	.	.	(2A\	-ter-	-ter-	2r	.	.	.	.	.
.	.	.	.	.	.	.	.	.	.	.	.	4cc\	-ma-	-ma-
!	!	!	!	!	!	!	!	!	!LO:TX:a:t=P:problem=kreska pseudotaktowa	!	!	!LO:TX:a:t=P:problem=kreska pseudotaktowa	!	!
.	.	.	.	.	.	2Bn\)	.	.	2f\	et	et	2bn,<\	-nes	-nes,
=91-	=91-	=91-	=91-	=91-	=91-	=91-	=91-	=91-	=91-	=91-	=91-	=91-	=91-	=91-
!	!	!	!LO:TX:a:t=P:problem=kreska pseudotaktowa	!	!	!	!	!	!	!	!	!	!	!
1C,<	-num	-num,	1C,<	-num	-num,	2G,</	-num	-num,	2f\	in	in	1cc	Vir-	Vir-
!	!	!	!	!	!	!LO:TX:a:t=P:problem=kreska pseudotaktowa	!	!	!LO:TX:a:t=P:problem=kreska pseudotaktowa	!	!	!	!	!
.	.	.	.	.	.	2c\	in	in	2e\	ae-	ae-	.	.	.
2D/	et	et	2D/	et	et	2A\	ae-	ae-	1f	-ter-	-ter-	(<2f/	.	.
!	!	!	!	!	!	!LO:TX:a:t=P:problem=kreska pseudotaktowa	!	!	!	!	!	!	!	!
1D\	in	in	1D\	in	in	2d\	-ter-	-ter-	.	.	.	2a\)	.	.
=92-	=92-	=92-	=92-	=92-	=92-	=92-	=92-	=92-	=92-	=92-	=92-	=92-	=92-	=92-
!	!	!	!	!	!	!	!	!	!LO:TX:a:t=P:problem=kreska pseudotaktowa	!	!	!	!	!
.	.	.	.	.	.	2G,</	-num	-num,	1e,<	-num	-num,	1g	.	.
*	*	*	*	*	*	*	*	*	*xywh-pl-kk--i-130--0004:370,1281,5176,752	*	*	*	*	*
!	!	!	!LO:TX:a:t=P:problem=kreska pseudotaktowa	!	!	!LO:TX:a:t=P:problem=kreska pseudotaktowa	!	!	!	!	!	!	!	!
2C#X/	ae-	ae-	2C#X/	ae-	ae-	2A\	et	et	.	.	.	.	.	.
2D/	-ter-	-ter-	2D\	-ter-	-ter-	2A\	in	in	(2d\	et	et	2f,</	-go.	-go,
!	!	!	!	!	!	!LO:TX:a:t=P:problem=kreska pseudotaktowa	!	!	!LO:TX:a:t=P:problem=kreska pseudotaktowa	!	!	!LO:TX:a:t=P:problem=kreska pseudotaktowa	!	!
2AA/	.	.	2AA/	.	.	2A\	ae-	ae-	2c#X\)	.	.	2a\	Et	tt
=93-	=93-	=93-	=93-	=93-	=93-	=93-	=93-	=93-	=93-	=93-	=93-	=93-	=93-	=93-
*lig	*	*	*lig	*	*	*	*	*	*	*	*	*	*	*
1BB-y	.	.	1BB-y	.	.	(2F/	-ter-	-ter-	2d\	in	in	2a\	in	in
!	!	!	!	!	!	!	!	!	!LO:TX:a:t=P:problem=kreska pseudotaktowa	!	!	!LO:TX:a:t=P:problem=kreska pseudotaktowa	!	!
.	.	.	.	.	.	2G/)	.	.	2d\	ae-	ae-	2g/	ae-	ae-
!	!	!	!	!	!	!LO:TX:a:t=P:problem=kreska pseudotaktowa	!	!	!	!	!	!	!	!
1AA	.	.	1AA	.	.	1E	.	.	2d\	-ter-	-ter-	2a/	-ter-	-ter-
!	!	!	!	!	!	!	!	!	!LO:TX:a:t=P:problem=kreska pseudotaktowa	!	!	!	!	!
.	.	.	.	.	.	.	.	.	2c#X/	.	.	2e/	.	.
*Xlig	*	*	*Xlig	*	*	*	*	*	*	*	*	*	*	*
=94-	=94-	=94-	=94-	=94-	=94-	=94-	=94-	=94-	=94-	=94-	=94-	=94-	=94-	=94-
!LO:TX:a:t=P:problem=kreska pseudotaktowa	!	!	!LO:TX:a:t=P:problem=kreska pseudotaktowa	!	!	!	!	!	!	!	!	!	!	!
1D,<	-num	-num	1D,<	-num	-num	2D,</	-num	-num	1d	.	.	2f,</	-num	-num
!	!	!	!	!	!	!	!	!	!	!	!	!LO:TX:a:t=P:problem=kreska pseudotaktowa	!	!
.	.	.	.	.	.	2.A/	per-	per-	.	.	.	[<2f/	per-	per-
*lig	*	*	*lig	*	*	*	*	*	*	*	*	*	*	*
!	!	!	!	!	!	!	!	!	!	!	!	!LO:MO:mod=!null:null	!	!
!	!	!	!	!	!	!	!	!	!LO:TX:a:t=P:problem=kreska pseudotaktowa	!	!	!LO:N:xstem:cue	!	!
1F	per-	per-	1F	per-	per-	.	.	.	1A	-num	-num	4f]	.	.
.	.	.	.	.	.	4G/	-ma-	-ma-	.	.	.	4e/	-ma-	-ma-
*	*	*	*	*	*	*xywh-pl-kk--i-130--0006:534,1951,4010,724	*	*	*	*	*	*	*	*
!	!	!	!	!	!	!LO:TX:a:t=P:problem=kreska pseudotaktowa	!	!	!	!	!	!	!	!
.	.	.	.	.	.	2F/	-nes	-nes,	.	.	.	2d,</	-nes	-nes,
=95-	=95-	=95-	=95-	=95-	=95-	=95-	=95-	=95-	=95-	=95-	=95-	=95-	=95-	=95-
*	*	*	*	*	*	*	*	*	*	*	*	*	*ij	*ij
!	!	!	!	!	!	!LO:LB:g=original	!	!	!LO:TX:a:t=P:problem=kreska pseudotaktowa	!	!	!	!	!
1G	.	.	1G	.	.	(2B-y\	Vir-	Vir-	1r	.	.	2.g\	per-	per-
.	.	.	.	.	.	2G/)	.	.	.	.	.	.	.	.
!	!	!	!	!	!	!	!	!	!	!	!	!LO:TX:a:t=P:problem=kreska pseudotaktowa	!	!
.	.	.	.	.	.	.	.	.	.	.	.	4f/	-ma-	-ma-
*Xlig	*	*	*Xlig	*	*	*	*	*	*	*	*	*	*	*
(2A\	.	.	2A\	.	.	2c\	.	.	2r	.	.	2e,</	-nes	-nes,
*	*	*	*	*	*	*	*	*	*	*	*	*	*Xij	*Xij
!	!	!	!LO:TX:a:t=P:problem=kreska pseudotaktowa	!	!	!LO:TX:a:t=P:problem=kreska pseudotaktowa	!	!	!	!	!	!	!	!
2AA/)	.	.	2AA/	.	.	2c\	-go	-go,	2.f\	per-	per-	(4a\	Vir-	Vir-
.	.	.	.	.	.	.	.	.	.	.	.	4g\)	.	.
=96-	=96-	=96-	=96-	=96-	=96-	=96-	=96-	=96-	=96-	=96-	=96-	=96-	=96-	=96-
!	!	!	!	!	!	!	!	!	!	!	!	!LO:TX:a:t=P:problem=kreska pseudotaktowa	!	!
2.BB-/	-ma-	-ma-	2.BB-/	ma-	ma-	2r	.	.	.	.	.	1f,<	-go	-go,
.	.	.	.	.	.	.	.	.	4e\	-ma-	-ma-	.	.	.
!	!	!	!	!	!	!	!	!	!LO:TX:a:t=P:problem=kreska pseudotaktowa	!	!	!	!	!
.	.	.	.	.	.	2.B-\	per-	per-	2d,<\	-nes	-nes,	.	.	.
4AA/	.	.	4AA/	.	.	.	.	.	.	.	.	.	.	.
*	*	*	*	*	*	*	*	*	*	*ij	*ij	*	*	*
2GG,</	-nes	-nes,	2GG,</	-nes	-nes,	.	.	.	2.g\	per-	per-	[>1g	per-	per-
.	.	.	.	.	.	4A/	-ma-	-ma-	.	.	.	.	.	.
*	*ij	*ij	*	*ij	*ij	*	*	*	*	*	*	*	*	*
!	!	!	!	!	!	!LO:TX:a:t=P:problem=kreska pseudotaktowa	!	!	!	!	!	!	!	!
2.Cny/	per-	per-	2.Cny/	per-	per-	2G,</	-nes	-nes,	.	.	.	.	.	.
!	!	!	!	!	!	!	!	!	!LO:TX:a:t=P:problem=kreska pseudotaktowa	!	!	!	!	!
.	.	.	.	.	.	.	.	.	4f\	ma-	ma-	.	.	.
=97-	=97-	=97-	=97-	=97-	=97-	=97-	=97-	=97-	=97-	=97-	=97-	=97-	=97-	=97-
*	*	*	*	*	*	*	*ij	*ij	*	*	*	*	*	*
.	.	.	.	.	.	2.c\	per-	per-	2e,<\	-nes	-nes,	2g]	.	.
*	*	*	*	*	*	*	*	*	*	*Xij	*Xij	*	*	*
4BB-/	-ma-	-ma-	4BB-/	-ma-	-ma-	.	.	.	.	.	.	.	.	.
!LO:TX:a:t=P:problem=kreska pseudotaktowa	!	!	!LO:TX:a:t=P:problem=kreska pseudotaktowa	!	!	!	!	!	!	!	!	!LO:TX:a:t=P:problem=kreska pseudotaktowa	!	!
2AA/	-nes	-nes,	2AA/	-nes	-nes,	.	.	.	2.a\	per-	per-	[<2a\	.	.
*	*Xij	*Xij	*	*Xij	*Xij	*	*	*	*	*	*	*	*	*
.	.	.	.	.	.	4B-\	-ma-	-ma-	.	.	.	.	.	.
!	!	!	!	!	!	!	!	!	!	!	!	!LO:MO:mod=!null:null	!	!
!	!	!	!	!	!	!	!	!	!	!	!	!LO:N:xstem:cue	!	!
2.D/	per-	per-	2.D\	per-	per-	2A,<\	-nes	-nes,	.	.	.	4a]	.	.
*	*	*	*	*	*	*	*Xij	*Xij	*	*	*	*	*	*
.	.	.	.	.	.	.	.	.	4g\	-ma-	-ma-	4a\	-ma-	-ma-
!	!	!	!	!	!	!LO:TX:a:t=P:problem=kreska pseudotaktowa	!	!	!LO:TX:a:t=P:problem=kreska pseudotaktowa	!	!	!LO:TX:a:t=P:problem=kreska pseudotaktowa	!	!
.	.	.	.	.	.	[<2d\	per-	per-	2f,<\	-nes	-nes,	2a\	-nes	-nes,
4C/	-ma-	-ma-	4C/	-ma-	-ma-	.	.	.	.	.	.	.	.	.
=98-	=98-	=98-	=98-	=98-	=98-	=98-	=98-	=98-	=98-	=98-	=98-	=98-	=98-	=98-
*	*	*	*	*	*	*	*	*	*	*ij	*ij	*	*	*
!	!	!	!	!	!	!LO:MO:mod=!null:null	!	!	!	!	!	!	!	!
*	*	*	*	*	*	*	*	*	*	*	*	*xywh-pl-kk--i-130--0002:414,3103,2069,765	*	*
!	!	!	!	!	!	!LO:N:xstem:cue	!	!	!	!	!	!LO:LB:g=original	!	!
1BB-	-nes	-nes,	1BB-	-nes	-nes,	4d]	.	.	2f\	per-	per-	4b-y\	per-	per-
.	.	.	.	.	.	4c\	-ma-	-ma-	.	.	.	4cc\	-ma-	-ma-
!	!	!	!	!	!	!LO:TX:a:t=P:problem=kreska pseudotaktowa	!	!	!LO:TX:a:t=P:problem=kreska pseudotaktowa	!	!	!LO:TX:a:t=P:problem=kreska pseudotaktowa	!	!
.	.	.	.	.	.	2B-\	-nes	-nes,	2f\	-ma-	-ma-	2dd,<\	-nes	-nes,
!	!	!	!	!	!	!	!	!	!	!	!	!LO:TX:a:t=P:problem=kreska pseudotaktowa	!	!
0C	Vir-	Vir-	0C	Vir-	Vir-	2G/	Vir-	Vir-	2e,<\	-nes	-nes,	[<1cc	Vir-	Vir-
*	*	*	*	*	*	*	*	*	*	*Xij	*Xij	*	*	*
.	.	.	.	.	.	2A/	.	.	1f\	Vir-	Vir-	.	.	.
=99-	=99-	=99-	=99-	=99-	=99-	=99-	=99-	=99-	=99-	=99-	=99-	=99-	=99-	=99-
.	.	.	.	.	.	1G	.	.	.	.	.	1cc]	.	.
.	.	.	.	.	.	.	.	.	2e\	.	.	.	.	.
!	!	!	!LO:MO:mod=!null:null	!	!	!	!	!	!	!	!	!	!	!
!	!	!	!LO:TX:b:t=O[btulit]. ad M[aiorem]. D[ei]. G[loria]m.	!	!	!	!	!	!	!	!	!	!	!
0.F;	-go	-go.	0.FF;	-go	-go.	0.A;	-go.	-go.	0.f;	-go.	-go.	0.cc;	-go.	-go.
!LO:PB:g=original	!	!	!LO:PB:g=original	!	!	!LO:PB:g=original	!	!	!LO:PB:g=original	!	!	!LO:PB:g=original	!	!
==	==	==	==	==	==	==	==	==	==	==	==	==	==	==
*-	*-	*-	*-	*-	*-	*-	*-	*-	*-	*-	*-	*-	*-	*-
!!!system-decoration: [(s1,s2,s3,s4,s5)]
!!!RDF**kern: < = below
!!!RDF**kern: > = above
!!!filter-modern: tie -s | humtr -p | sic -sq | shed -e "s/LO:DY:(a|b|rj)/LO:dy:$1/L" | shed -e "s/TX(.*):t=P:/tx$1:t=P:/LG" | modori -m | autostem -r | shed -e "s/yy//" | shed -k -e "s/\(y([^y])/($1/" | shed -e "s/-//B" | shed -e "s/^(\d+[\/\\]right)/$1yy/I; s/^(\d+[\/\\]left)/$1yy/I" | shed -e "s/^(X?)rep$/$1REP/I" | shed -k -e "s/[<>]//g" | shed -e "s/^custos:/Xcustos:/I" | shed -k -e "s/:TUP:/:tup:/L" | rid -li
!!!ENC: Marcin Jachim
!!!END: 2021-03-25
!!!EED: Marta Chmielewska
!!!EEV: 2021-04-08
!!!EED-modern: Antoni Szymański
!!!END-modern: 2022-07-06
!!!ENC-iiif: Marta Opryszak
!!!END-iiif: 2022-08-26
